; Postprocessed by [ArcWelder](https://github.com/FormerLurker/ArcWelderLib)
; Copyright(C) 2021 - Brad Hochgesang
; Version: 1.2.0, Branch: HEAD, BuildDate: 2021-11-21T20:25:43Z
; resolution=0.05mm
; path_tolerance=5.0%
; max_radius=9999.00mm
; default_xyz_precision=3
; default_e_precision=5
; extrusion_rate_variance_percent=5.0%

; generated by AnycubicSlicer 1.1.5 on 2023-10-05 at 08:22:21 UTC




; 

; external perimeters extrusion width = 0.42mm
; perimeters extrusion width = 0.45mm
; infill extrusion width = 0.45mm
; solid infill extrusion width = 0.45mm
; top infill extrusion width = 0.42mm
; first layer extrusion width = 0.50mm

;TYPE:Custom
G90 ; use absolute coordinates
M83 ; extruder relative mode
M140 S60 ; set bed temp
M190 S60 ; wait for bed temp
M104 S215 ; set extruder temp
M109 S215 ; wait for extruder temp
G28                                        ; move X/Y/Z to min endstops
G1 Z0.28                                   ; lift nozzle a bit 
G92 E0 
G1 Y3 F2400                                    ; zero the extruded length 
G1 X180  E40 F500                       ; Extrude 25mm of filament in a 5cm line. 
G92 E0                                     ; zero the extruded length again 
G1 E-0.2 F3000                                ; Retract a little 
G1 X181 F4000                              ; Quickly wipe away from the filament line
M117
G21 ; set units to millimeters
G90 ; use absolute coordinates
M82 ; use absolute distances for extrusion
G92 E0
M107
;LAYER_CHANGE
;Z:0.25
;HEIGHT:0.25
; BEFORE_LAYER_CHANGE 0 @ 0.25mm
G1 Z.25 F18000
; AFTER_LAYER_CHANGE 0 @ 0.25mm
G1 E-2.5 F4800
G92 E0
M204 S20000
G1 X179.253 Y64.05 F18000
G1 E2.5 F4800
M204 S5000
;TYPE:External perimeter
;WIDTH:0.499999
G1 X179.406 Y63.989 E2.50749
G1 X179.476 Y63.827 E2.51551
G1 X179.476 Y60.25 E2.67814
G1 X182.574 Y60.25 E2.81899
G3 X184.750 Y63.411 I-7.703 J7.632 E2.99429
G1 X184.75 Y156.589 E7.2306
G3 X182.574 Y159.750 I-9.766 J-4.393 E7.40591
G1 X179.476 Y159.75 E7.54676
G1 X179.476 Y156.173 E7.70939
G2 X179.257 Y155.950 I-0.221 J-0.002 E7.72476
G1 X171.083 Y155.95 E8.09639
G2 X170.860 Y156.173 I0.001 J0.224 E8.11190
G1 X170.86 Y159.75 E8.27453
G1 X49.14 Y159.75 E13.8085
G1 X49.14 Y156.173 E13.97113
G2 X48.917 Y155.950 I-0.222 J-0.001 E13.98667
G1 X40.747 Y155.95 E14.35812
G2 X40.524 Y156.173 I-0.002 J0.221 E14.37366
G1 X40.524 Y159.75 E14.53629
G1 X37.426 Y159.75 E14.67714
G3 X35.250 Y156.589 I7.703 J-7.632 E14.85244
G1 X35.25 Y63.411 E19.08875
G3 X37.426 Y60.250 I9.766 J4.393 E19.26406
G1 X40.524 Y60.25 E19.40491
G1 X40.524 Y63.827 E19.56754
G2 X40.746 Y64.050 I0.222 J0.001 E19.58304
G1 X48.917 Y64.05 E19.95453
G2 X49.140 Y63.827 I0.001 J-0.222 E19.97007
G1 X49.14 Y60.25 E20.1327
G1 X170.86 Y60.25 E25.66667
G1 X170.86 Y63.827 E25.8293
G2 X171.083 Y64.050 I0.223 J-0.001 E25.84481
G1 X179.193 Y64.05 E26.21353
M204 S20000
G1 X179.368 Y64.168 F18000
G1 X179.333 Y64.482
M204 S5000
;TYPE:Perimeter
G1 F4800
G2 X179.923 Y63.827 I-0.058 J-0.646 E26.25733
G1 X179.923 Y60.696 E26.39968
G1 X182.373 Y60.696 E26.51107
G3 X184.304 Y63.522 I-7.162 J6.967 E26.66739
G1 X184.304 Y156.479 E30.89366
G3 X182.373 Y159.304 I-8.836 J-3.967 E31.04995
G1 X179.923 Y159.304 E31.16134
G1 X179.923 Y156.422 E31.29237
G1 X179.883 Y155.945 E31.31413
G2 X179.253 Y155.504 I-0.630 J0.229 E31.35109
G1 X171.548 Y155.504 E31.7014
G1 X170.928 Y155.522 E31.7296
G2 X170.413 Y156.173 I0.156 J0.652 E31.76995
G1 X170.413 Y159.304 E31.9123
G1 X49.587 Y159.304 E37.40562
G1 X49.575 Y156.051 E37.55352
G2 X48.917 Y155.504 I-0.658 J0.122 E37.59536
G1 X41.03 Y155.504 E37.95394
G1 X40.53 Y155.54 E37.97673
G2 X40.077 Y156.173 I0.219 J0.635 E38.01421
G1 X40.077 Y159.304 E38.15656
G1 X37.627 Y159.304 E38.26795
G3 X35.696 Y156.478 I7.162 J-6.967 E38.42427
G1 X35.696 Y63.521 E42.65054
G3 X37.627 Y60.696 I8.836 J3.967 E42.80683
G1 X40.077 Y60.696 E42.91822
G1 X40.077 Y63.827 E43.06057
G2 X40.745 Y64.496 I0.668 J0.001 E43.10797
G1 X48.22 Y64.496 E43.44782
G1 X49.087 Y64.474 E43.48725
G2 X49.587 Y63.827 I-0.171 J-0.649 E43.52691
G1 X49.587 Y60.696 E43.66926
G1 X170.413 Y60.696 E49.16258
G1 X170.413 Y63.827 E49.30493
G2 X171.083 Y64.496 I0.670 J-0.001 E49.35238
G1 X179.274 Y64.493 E49.72478
M204 S20000
;WIPE_START
G1 F14400
G2 X179.923 Y63.827 I-0.014 J-0.663 E49.40069
G1 X179.923 Y60.696 E48.40921
G1 X182.373 Y60.696 E47.63338
G3 X183.202 Y61.683 I-3.633 J3.893 E47.22478
;WIPE_END
G92 E0
G1 X174.229 Y73.608 F18000
G1 E2.5 F4800
M204 S5000
;TYPE:External perimeter
G1 X173.944 Y73.945 E2.52007
G1 X168.943 Y78.946 E2.84162
G3 X165.054 Y75.057 I-1.944 J-1.945 E3.23345
G1 X170.055 Y70.056 E3.555
G3 X174.260 Y73.556 I1.943 J1.942 E3.92431
M204 S20000
G1 X174.394 Y73.972 F18000
G1 X174.599 Y73.85
M204 S5000
;TYPE:Perimeter
G1 F4800
G1 X174.259 Y74.261 E3.94856
G1 X169.259 Y79.262 E4.27008
G3 X164.738 Y74.741 I-2.258 J-2.263 E4.72568
G1 X169.739 Y69.741 E5.0472
G3 X174.630 Y73.799 I2.258 J2.255 E5.47597
M204 S20000
;WIPE_START
G1 F14400
G1 X174.259 Y74.261 E5.28834
G1 X169.259 Y79.262 E3.04894
G1 X169.082 Y79.41 E2.97597
;WIPE_END
G92 E0
G1 X155.524 Y79.698 F18000
G1 E2.5 F4800
M204 S5000
;TYPE:External perimeter
G3 X153.055 Y78.946 I-0.529 J-2.691 E2.62202
G1 X148.055 Y73.945 E2.94354
G3 X151.944 Y70.056 I1.946 J-1.943 E3.33544
G1 X156.945 Y75.057 E3.65699
G3 X155.582 Y79.683 I-1.948 J1.940 E3.92403
M204 S20000
G1 X155.395 Y80.076 F18000
G1 X155.647 Y80.125
M204 S5000
;TYPE:Perimeter
G1 F4800
G3 X152.740 Y79.262 I-0.655 J-3.121 E4.06756
G1 X147.739 Y74.261 E4.38911
G3 X152.259 Y69.741 I2.262 J-2.258 E4.84473
G1 X157.26 Y74.741 E5.16625
G3 X155.705 Y80.109 I-2.253 J2.257 E5.47570
M204 S20000
;WIPE_START
G1 F14400
G3 X152.740 Y79.262 I-0.719 J-3.095 E4.45718
G1 X149.432 Y75.954 E2.9757
;WIPE_END
G92 E0
G1 X140.353 Y70.587 F18000
G1 E2.5 F4800
M204 S5000
;TYPE:External perimeter
G3 X139.944 Y73.945 I-2.388 J1.413 E2.66513
G1 X134.943 Y78.946 E2.98668
G3 X131.054 Y75.057 I-1.944 J-1.945 E3.37851
G1 X136.055 Y70.056 E3.70006
G3 X140.319 Y70.538 I1.940 J1.935 E3.92392
M204 S20000
G1 X140.753 Y70.588 F18000
G1 X140.759 Y70.408
M204 S5000
;TYPE:Perimeter
G1 F4800
G3 X140.259 Y74.261 I-2.747 J1.603 E4.11378
G1 X135.259 Y79.262 E4.4353
G3 X130.738 Y74.741 I-2.258 J-2.263 E4.89090
G1 X135.739 Y69.741 E5.21242
G3 X140.732 Y70.354 I2.257 J2.258 E5.47552
M204 S20000
;WIPE_START
G1 F14400
G3 X140.259 Y74.261 I-2.730 J1.652 E4.13405
G1 X137.672 Y76.848 E2.97552
;WIPE_END
G92 E0
G1 X140.733 Y90.959 F18000
G1 E2.5 F4800
M204 S5000
;TYPE:External perimeter
G3 X136.055 Y92.945 I-2.737 J0.055 E2.79602
G1 X131.054 Y87.944 E3.11757
G3 X134.943 Y84.055 I1.946 J-1.943 E3.50950
G1 X139.944 Y89.056 E3.83105
G3 X140.727 Y90.900 I-1.926 J1.906 E3.92423
M204 S20000
G2 X141.189 Y91.138 I0.569 J-0.536 F18000
M204 S5000
;TYPE:Perimeter
G1 F4800
G3 X135.739 Y93.261 I-3.192 J-0.137 E4.25976
G1 X130.738 Y88.26 E4.58131
G3 X135.259 Y83.740 I2.261 J-2.260 E5.03697
G1 X140.259 Y88.741 E5.35849
G3 X141.192 Y91.078 I-2.248 J2.252 E5.47598
M204 S20000
;WIPE_START
G1 F14400
G3 X135.739 Y93.261 I-3.195 J-0.078 E3.12002
G1 X135.417 Y92.939 E2.97598
;WIPE_END
G92 E0
G1 X114.411 Y93.243 F18000
G1 E2.5 F4800
M204 S5000
;TYPE:External perimeter
G3 X114.042 Y89.070 I1.609 J-2.245 E2.71602
G1 X119.055 Y84.055 E3.0384
G3 X122.945 Y87.945 I1.943 J1.947 E3.43014
G1 X117.944 Y92.945 E3.75166
G3 X114.463 Y93.273 I-1.938 J-1.937 E3.92375
M204 S20000
G1 X114.047 Y93.408 F18000
G1 X114.135 Y93.584
M204 S5000
;TYPE:Perimeter
G1 F4800
G3 X113.702 Y88.781 I1.852 J-2.588 E4.17226
G1 X118.74 Y83.74 E4.49628
G3 X123.260 Y88.260 I2.258 J2.262 E4.95202
G1 X118.259 Y93.261 E5.27357
G3 X114.182 Y93.622 I-2.254 J-2.255 E5.47538
M204 S20000
;WIPE_START
G1 F14400
G3 X113.702 Y88.781 I1.812 J-2.624 E3.72533
G1 X115.376 Y87.106 E2.97538
;WIPE_END
G92 E0
G1 X121.696 Y107.66 F18000
G1 E2.5 F4800
M204 S5000
;TYPE:External perimeter
G3 X119.055 Y106.946 I-0.682 J-2.719 E2.62975
G1 X114.055 Y101.945 E2.95127
G3 X117.944 Y98.056 I1.946 J-1.943 E3.34278
G1 X122.945 Y103.057 E3.66433
G3 X121.753 Y107.640 I-1.941 J1.942 E3.92369
M204 S20000
G1 X121.581 Y108.043 F18000
G1 X121.779 Y108.091
M204 S5000
;TYPE:Perimeter
G1 F4800
G3 X118.740 Y107.262 I-0.795 J-3.071 E4.07339
G1 X113.739 Y102.261 E4.39494
G3 X118.259 Y97.741 I2.261 J-2.259 E4.85071
G1 X123.26 Y102.741 E5.17223
G3 X121.838 Y108.079 I-2.259 J2.257 E5.47541
M204 S20000
;WIPE_START
G1 F14400
G3 X118.740 Y107.262 I-0.847 J-3.072 E4.41364
G1 X115.528 Y104.05 E2.97541
;WIPE_END
G92 E0
G1 X100.121 Y107.503 F18000
G1 E2.5 F4800
M204 S5000
;TYPE:External perimeter
G3 X97.054 Y103.057 I-1.127 J-2.503 E2.84600
G1 X102.055 Y98.056 E3.16755
G3 X105.944 Y101.945 I1.942 J1.947 E3.55921
G1 X100.943 Y106.946 E3.88076
G3 X100.178 Y107.483 I-2.106 J-2.187 E3.92337
M204 S20000
G3 X100.033 Y108.013 I-1.905 J-0.236 F18000
M204 S5000
;TYPE:Perimeter
G1 F4800
G3 X96.738 Y102.741 I-1.041 J-3.015 E4.31321
G1 X101.739 Y97.741 E4.63473
G3 X106.259 Y102.261 I2.258 J2.262 E5.09034
G1 X101.259 Y107.262 E5.41186
G3 X100.089 Y107.992 I-1.980 J-1.870 E5.47508
M204 S20000
;WIPE_START
G1 F14400
G3 X96.291 Y103.327 I-1.104 J-2.980 E2.97508
;WIPE_END
G92 E0
G1 X96.367 Y114.773 F18000
G1 E2.5 F4800
M204 S5000
;TYPE:External perimeter
G1 X96.339 Y114.694 E2.50381
G3 X100.943 Y112.055 I2.661 J-0.693 E2.82932
G1 X105.944 Y117.056 E3.15087
G3 X102.055 Y120.945 I-1.945 J1.944 E3.54274
G1 X97.054 Y115.944 E3.86429
G3 X96.387 Y114.829 I1.709 J-1.779 E3.92394
M204 S20000
G1 X96.284 Y114.76 F18000
G1 X95.909 Y114.78
M204 S5000
;TYPE:Perimeter
G1 F4800
G3 X101.259 Y111.740 I3.093 J-0.784 E4.30148
G1 X106.259 Y116.741 E4.623
G3 X101.739 Y121.261 I-2.262 J2.258 E5.07885
G1 X96.738 Y116.26 E5.4004
G3 X95.921 Y114.839 I2.215 J-2.219 E5.47571
M204 S20000
;WIPE_START
G1 F14400
G3 X100.896 Y111.443 I3.070 J-0.845 E2.97571
;WIPE_END
G92 E0
G1 X97.216 Y135.09 F18000
G1 E2.5 F4800
M204 S5000
;TYPE:External perimeter
G3 X97.054 Y131.057 I1.805 J-2.092 E2.70554
G1 X102.055 Y126.056 E3.02709
G3 X105.944 Y129.945 I1.943 J1.946 E3.41903
G1 X100.943 Y134.946 E3.74058
G3 X97.262 Y135.128 I-1.943 J-1.973 E3.92367
M204 S20000
G1 X96.84 Y135.226 F18000
G1 X96.973 Y135.464
M204 S5000
;TYPE:Perimeter
G1 F4800
G3 X96.738 Y130.741 I2.018 J-2.468 E4.16551
G1 X101.739 Y125.741 E4.48703
G3 X106.259 Y130.261 I2.258 J2.262 E4.94268
G1 X101.259 Y135.262 E5.2642
G3 X97.021 Y135.500 I-2.252 J-2.248 E5.47530
M204 S20000
;WIPE_START
G1 F14400
G3 X96.738 Y130.741 I1.967 J-2.505 E3.77201
G1 X98.517 Y128.962 E2.9753
;WIPE_END
G92 E0
G1 X87.986 Y139.435 F18000
G1 E2.5 F4800
M204 S5000
;TYPE:External perimeter
G3 X88.945 Y143.945 I-1.002 J2.570 E2.74794
G1 X83.944 Y148.945 E3.06946
G3 X80.055 Y145.056 I-1.944 J-1.945 E3.46160
G1 X85.055 Y140.055 E3.78312
G3 X87.928 Y139.420 I1.944 J1.979 E3.92390
M204 S20000
G1 X88.293 Y139.179 F18000
G1 X88.114 Y139.012
M204 S5000
;TYPE:Perimeter
G1 F4800
G3 X89.260 Y144.260 I-1.110 J2.992 E4.21393
G1 X84.259 Y149.261 E4.53548
G3 X79.739 Y144.741 I-2.260 J-2.260 E4.99107
G1 X84.74 Y139.74 E5.31262
G3 X88.057 Y138.994 I2.245 J2.235 E5.47559
M204 S20000
;WIPE_START
G1 F14400
G3 X89.260 Y144.260 I-1.050 J3.010 E3.43662
G1 X88.231 Y145.289 E2.97559
;WIPE_END
G92 E0
G1 X89.657 Y132.3 F18000
G1 E2.5 F4800
M204 S5000
;TYPE:External perimeter
G3 X85.055 Y134.946 I-2.659 J0.701 E2.82588
G1 X80.055 Y129.945 E3.1474
G3 X83.944 Y126.056 I1.946 J-1.943 E3.53922
G1 X88.945 Y131.057 E3.86077
G3 X89.637 Y132.244 I-1.857 J1.878 E3.92386
M204 S20000
G1 X90.04 Y132.418 F18000
G1 X90.089 Y132.221
M204 S5000
;TYPE:Perimeter
G1 F4800
G3 X84.740 Y135.262 I-3.092 J0.786 E4.30143
G1 X79.739 Y130.261 E4.62298
G3 X84.259 Y125.741 I2.262 J-2.258 E5.07860
G1 X89.26 Y130.741 E5.40012
G3 X90.078 Y132.162 I-2.231 J2.230 E5.47544
M204 S20000
;WIPE_START
G1 F14400
G3 X85.103 Y135.560 I-3.070 J0.846 E2.97544
;WIPE_END
G92 E0
G1 X87.986 Y111.435 F18000
G1 E2.5 F4800
M204 S5000
;TYPE:External perimeter
G3 X88.973 Y115.912 I-0.999 J2.567 E2.74596
G1 X83.944 Y120.945 E3.06944
G3 X80.055 Y117.056 I-1.942 J-1.947 E3.46098
G1 X85.055 Y112.055 E3.7825
G3 X87.928 Y111.420 I1.944 J1.979 E3.92328
M204 S20000
G1 X88.293 Y111.179 F18000
G1 X88.114 Y111.012
M204 S5000
;TYPE:Perimeter
G1 F4800
G3 X89.260 Y116.260 I-1.110 J2.992 E4.21331
G1 X84.259 Y121.261 E4.53486
G3 X79.739 Y116.741 I-2.258 J-2.262 E4.99059
G1 X84.74 Y111.74 E5.31214
G3 X88.057 Y110.994 I2.245 J2.235 E5.47511
M204 S20000
;WIPE_START
G1 F14400
G3 X89.260 Y116.260 I-1.050 J3.010 E3.43609
G1 X88.231 Y117.289 E2.97511
;WIPE_END
G92 E0
G1 X63.667 Y111.603 F18000
G1 E2.5 F4800
M204 S5000
;TYPE:External perimeter
G3 X66.943 Y112.055 I1.340 J2.387 E2.66102
G1 X71.944 Y117.056 E2.98257
G3 X68.055 Y120.945 I-1.953 J1.936 E3.37451
G1 X63.054 Y115.945 E3.69603
G3 X63.617 Y111.636 I1.941 J-1.938 E3.92407
M204 S20000
G1 X63.677 Y111.203 F18000
G1 X63.486 Y111.194
M204 S5000
;TYPE:Perimeter
G1 F4800
G3 X67.259 Y111.740 I1.521 J2.798 E4.10972
G1 X72.259 Y116.741 E4.43124
G3 X67.739 Y121.261 I-2.262 J2.258 E4.88688
G1 X62.738 Y116.26 E5.20843
G3 X63.432 Y111.219 I2.260 J-2.257 E5.47584
M204 S20000
;WIPE_START
G1 F14400
G3 X67.259 Y111.740 I1.570 J2.783 E4.16391
G1 X69.912 Y114.393 E2.97584
;WIPE_END
G92 E0
G1 X71.008 Y97.447 F18000
G1 E2.5 F4800
M204 S5000
;TYPE:External perimeter
G3 X71.944 Y101.945 I-1.022 J2.559 E2.74674
G1 X66.943 Y106.946 E3.06829
G3 X63.054 Y103.057 I-1.944 J-1.945 E3.46013
G1 X68.055 Y98.056 E3.78168
G3 X70.952 Y97.427 I1.946 J1.978 E3.92360
M204 S20000
G1 X71.316 Y97.192 F18000
G1 X71.114 Y97.012
M204 S5000
;TYPE:Perimeter
G1 F4800
G3 X72.259 Y102.261 I-1.113 J2.992 E4.21362
G1 X67.259 Y107.262 E4.53514
G3 X62.738 Y102.741 I-2.258 J-2.263 E4.99075
G1 X67.739 Y97.741 E5.31227
G3 X71.056 Y96.995 I2.243 J2.226 E5.47531
M204 S20000
;WIPE_START
G1 F14400
G3 X72.259 Y102.261 I-1.050 J3.010 E3.43620
G1 X71.23 Y103.29 E2.97531
;WIPE_END
G92 E0
G1 X52.666 Y111.273 F18000
G1 E2.5 F4800
M204 S5000
;TYPE:External perimeter
G3 X54.945 Y115.945 I0.334 J2.729 E2.80927
G1 X49.944 Y120.945 E3.13079
G3 X46.055 Y117.056 I-1.944 J-1.945 E3.52258
G1 X51.055 Y112.055 E3.8441
G3 X52.608 Y111.284 I1.926 J1.929 E3.92424
M204 S20000
G1 X52.826 Y110.906 F18000
G1 X52.599 Y110.836
M204 S5000
;TYPE:Perimeter
G1 F4800
G3 X55.260 Y116.260 I0.404 J3.167 E4.28424
G1 X50.259 Y121.261 E4.60579
G3 X45.739 Y116.741 I-2.258 J-2.262 E5.06151
G1 X50.74 Y111.74 E5.38306
G3 X52.540 Y110.847 I2.205 J2.184 E5.47599
M204 S20000
;WIPE_START
G1 F14400
G3 X55.313 Y116.196 I0.468 J3.150 E2.97599
;WIPE_END
G92 E0
G1 X51.394 Y107.232 F18000
G1 E2.5 F4800
M204 S5000
;TYPE:External perimeter
G1 X51.055 Y106.946 E2.52016
G1 X46.055 Y101.945 E2.84168
G3 X49.944 Y98.056 I1.946 J-1.943 E3.23352
G1 X54.945 Y103.057 E3.55507
G3 X51.446 Y107.263 I-1.941 J1.944 E3.92393
M204 S20000
G1 X51.03 Y107.397 F18000
G1 X51.438 Y107.776
M204 S5000
;TYPE:Perimeter
G1 F4800
G3 X50.740 Y107.262 I1.262 J-2.444 E3.96346
G1 X45.739 Y102.261 E4.28501
G3 X50.259 Y97.741 I2.261 J-2.259 E4.74074
G1 X55.26 Y102.741 E5.06226
G3 X51.490 Y107.808 I-2.255 J2.258 E5.47568
M204 S20000
;WIPE_START
G1 F14400
G3 X50.740 Y107.262 I1.340 J-2.629 E5.18099
G1 X45.816 Y102.338 E2.97568
;WIPE_END
G92 E0
G1 X55.631 Y86.796 F18000
G1 E2.5 F4800
M204 S5000
;TYPE:External perimeter
G3 X54.945 Y87.945 I-2.669 J-0.814 E2.56138
G1 X49.944 Y92.945 E2.8829
G3 X46.055 Y89.056 I-1.944 J-1.945 E3.27497
G1 X51.055 Y84.055 E3.59649
G3 X55.643 Y86.737 I1.943 J1.942 E3.92446
M204 S20000
G1 X55.904 Y87.087 F18000
G1 X56.059 Y86.905
M204 S5000
;TYPE:Perimeter
G1 F4800
G3 X55.260 Y88.260 I-3.048 J-0.884 E3.99666
G1 X50.259 Y93.261 E4.31821
G3 X45.739 Y88.741 I-2.258 J-2.262 E4.77381
G1 X50.74 Y83.74 E5.09536
G3 X56.072 Y86.846 I2.257 J2.254 E5.47609
M204 S20000
;WIPE_START
G1 F14400
G3 X55.260 Y88.260 I-3.034 J-0.802 E4.95430
G1 X50.843 Y92.677 E2.97609
;WIPE_END
G92 E0
G1 X55.544 Y78.036 F18000
G1 E2.5 F4800
M204 S5000
;TYPE:External perimeter
G3 X51.055 Y78.946 I-2.547 J-1.036 E2.74591
G1 X46.055 Y73.945 E3.06743
G3 X49.593 Y69.761 I1.945 J-1.943 E3.43867
G1 X50.406 Y70.518 E3.48918
G1 X54.945 Y75.057 E3.78102
