; generated by AnycubicSlicer 1.1.5 on 2023-10-04 at 17:05:38 UTC

; 

; external perimeters extrusion width = 0.45mm
; perimeters extrusion width = 0.40mm
; infill extrusion width = 0.45mm
; solid infill extrusion width = 0.50mm
; top infill extrusion width = 0.45mm
; first layer extrusion width = 0.56mm

M73 P0 R49
M201 X2500 Y2500 Z800 E2500 ; sets maximum accelerations, mm/sec^2
M203 X300 Y250 Z8 E80 ; sets maximum feedrates, mm / sec
M204 S2500 T2500 ; sets acceleration (S) and retract acceleration (R), mm/sec^2
M205 X15.00 Y10.00 Z2.00 E10.00 ; sets the jerk limits, mm/sec
M205 S0 T0 ; sets the minimum extruding and travel feed rate, mm/sec
;TYPE:Custom
G90 ; use absolute coordinates
M83 ; extruder relative mode
M104 S195 ; set extruder temp
M140 S40 ; set bed temp
M190 S40 ; wait for bed temp
M109 S195 ; wait for extruder temp
G28                                        ; move X/Y/Z to min endstops
G1 Z0.28                                   ; lift nozzle a bit 
G92 E0 
G1 Y3 F1800                                    ; zero the extruded length 
G1 X60  E25 F500                       ; Extrude 25mm of filament in a 5cm line. 
G92 E0                                     ; zero the extruded length again 
G1 E-2 F500                                ; Retract a little 
G1 X70 F4000                              ; Quickly wipe away from the filament line
M117
G21 ; set units to millimeters
G90 ; use absolute coordinates
M82 ; use absolute distances for extrusion
G92 E0
; Filament gcode
M107
;LAYER_CHANGE
;Z:0.28
;HEIGHT:0.28
; BEFORE_LAYER_CHANGE 0 @ 0.28mm
G1 E-2 F4800
G92 E0
G1 Z.28 F7200
; AFTER_LAYER_CHANGE 0 @ 0.28mm
G1 X88.631 Y120.91
G1 E2 F4800
M204 S2000
;TYPE:External perimeter
;WIDTH:0.56
G1 F3000
G1 X88.089 Y121.417 E2.04319
G1 X87.749 Y121.639 E2.06682
G1 X87.425 Y121.957 E2.09324
G1 X86.576 Y122.9 E2.16708
G1 X85.579 Y124.266 E2.2655
G1 X84.72 Y125.723 E2.36393
G1 X84.007 Y127.257 E2.46237
G1 X83.449 Y128.853 E2.56076
G1 X83.049 Y130.496 E2.65917
G1 X82.813 Y132.166 E2.75732
G1 X82.791 Y132.49 E2.77622
G1 X45.574 Y132.49 E4.94206
G1 X45.574 Y121.01 E5.61014
G1 X86.412 Y121.01 E7.9867
G1 X87.424 Y120.976 E8.04563
G1 X87.915 Y120.91 E8.07446
G1 X88.571 Y120.91 E8.11264
M204 S2500
G1 X88.283 Y121.109 F7200
G1 E6.71264 F4800
;WIPE_START
G1 F5760
G1 X88.089 Y121.417 E6.15883
G1 X88.04 Y121.449 E6.11264
;WIPE_END
G92 E0
G1 X87.178 Y121.485 F7200
G1 E2 F4800
M204 S2000
;TYPE:Perimeter
G1 F3000
G1 X86.188 Y122.584 E2.08608
G1 X85.16 Y123.991 E2.18749
G1 X84.277 Y125.49 E2.28873
G1 X83.544 Y127.068 E2.38999
G1 X82.969 Y128.711 E2.49129
G1 X82.557 Y130.402 E2.59258
G1 X82.333 Y131.99 E2.68591
G1 X46.074 Y131.99 E4.796
G1 X46.074 Y121.51 E5.40588
G1 X86.42 Y121.51 E7.75381
G1 X87.118 Y121.486 E7.79445
M204 S2500
G1 E6.39445 F4800
;WIPE_START
G1 F5760
G1 X86.628 Y122.064 E5.79445
;WIPE_END
G92 E0
G1 X86.032 Y122.009 F7200
G1 E2 F4800
M204 S2000
G1 F3000
G1 X85.799 Y122.269 E2.02032
G1 X84.742 Y123.716 E2.1246
G1 X83.834 Y125.257 E2.22869
G1 X83.08 Y126.88 E2.33284
G1 X82.489 Y128.569 E2.43697
G1 X82.066 Y130.307 E2.54107
G1 X81.898 Y131.49 E2.61061
G1 X46.574 Y131.49 E4.66629
G1 X46.574 Y122.01 E5.21798
G1 X85.972 Y122.009 E7.51074
M204 S2500
G1 E6.11074 F4800
;WIPE_START
G1 F5760
G1 X85.799 Y122.269 E5.86351
G1 X85.536 Y122.629 E5.51074
;WIPE_END
G92 E0
G1 X84.594 Y122.209 F7200
G1 E2 F4800
M204 S2000
;TYPE:Solid infill
;WIDTH:0.566948
G1 F3000
G1 X85.011 Y122.627 E2.03484
G1 X84.709 Y123.041 E2.06508
G1 X84.102 Y122.434 E2.11573
G1 X83.385 Y122.434 E2.15804
G1 X84.406 Y123.456 E2.24328
G1 X84.138 Y123.904 E2.27408
G1 X82.668 Y122.434 E2.39674
G1 X81.951 Y122.434 E2.43905
G1 X83.872 Y124.355 E2.59935
G1 X83.606 Y124.806 E2.63024
G1 X81.235 Y122.434 E2.82813
G1 X80.518 Y122.434 E2.87044
G1 X83.357 Y125.274 E3.10738
G1 X83.13 Y125.763 E3.13919
G1 X79.801 Y122.434 E3.41697
G1 X79.084 Y122.434 E3.45928
G1 X82.903 Y126.253 E3.77795
G1 X82.677 Y126.744 E3.80984
G1 X78.367 Y122.434 E4.16948
G1 X77.651 Y122.434 E4.21173
G1 X82.491 Y127.275 E4.61564
G1 X82.306 Y127.806 E4.64882
G1 X76.934 Y122.434 E5.09708
G1 X76.217 Y122.434 E5.13939
G1 X82.12 Y128.337 E5.63196
G1 X81.97 Y128.904 E5.66657
G1 X75.5 Y122.434 E6.20645
G1 X74.783 Y122.435 E6.24876
G1 X81.83 Y129.481 E6.83675
G1 X81.689 Y130.057 E6.87174
G1 X74.067 Y122.435 E7.50775
G1 X73.35 Y122.435 E7.55006
G1 X81.585 Y130.67 E8.23722
G1 X81.529 Y131.065 E8.26076
G1 X81.264 Y131.065 E8.2764
G1 X72.633 Y122.435 E8.99656
G1 X71.916 Y122.435 E9.03887
G1 X80.547 Y131.065 E9.75903
G1 X79.83 Y131.065 E9.80134
G1 X71.199 Y122.435 E10.5215
G1 X70.483 Y122.435 E10.56375
G1 X79.113 Y131.065 E11.28387
G1 X78.396 Y131.065 E11.32618
G1 X69.766 Y122.435 E12.0463
G1 X69.049 Y122.435 E12.08861
G1 X77.68 Y131.065 E12.80877
G1 X76.963 Y131.065 E12.85108
G1 X68.332 Y122.435 E13.57124
G1 X67.615 Y122.435 E13.61355
G1 X76.246 Y131.065 E14.33371
G1 X75.529 Y131.065 E14.37602
G1 X66.899 Y122.435 E15.09614
G1 X66.182 Y122.435 E15.13845
G1 X74.812 Y131.065 E15.85857
G1 X74.096 Y131.065 E15.90082
G1 X65.465 Y122.435 E16.62098
G1 X64.748 Y122.435 E16.66329
G1 X73.379 Y131.065 E17.38345
G1 X72.662 Y131.065 E17.42576
G1 X64.031 Y122.435 E18.14592
G1 X63.315 Y122.435 E18.18817
G1 X71.945 Y131.065 E18.90829
G1 X71.228 Y131.065 E18.9506
G1 X62.598 Y122.435 E19.67072
G1 X61.881 Y122.435 E19.71303
G1 X70.512 Y131.065 E20.43319
G1 X69.795 Y131.065 E20.4755
G1 X61.164 Y122.435 E21.19566
G1 X60.447 Y122.435 E21.23797
G1 X69.078 Y131.065 E21.95813
G1 X68.361 Y131.065 E22.00044
G1 X59.731 Y122.435 E22.72056
G1 X59.014 Y122.435 E22.76287
G1 X67.644 Y131.065 E23.48299
G1 X66.928 Y131.065 E23.52524
G1 X58.297 Y122.435 E24.2454
G1 X57.58 Y122.435 E24.28771
G1 X66.211 Y131.065 E25.00787
G1 X65.494 Y131.065 E25.05018
G1 X56.863 Y122.435 E25.77034
G1 X56.147 Y122.435 E25.81259
G1 X64.777 Y131.065 E26.53271
G1 X64.06 Y131.065 E26.57502
G1 X55.43 Y122.435 E27.29514
G1 X54.713 Y122.435 E27.33745
G1 X63.344 Y131.065 E28.05761
G1 X62.627 Y131.065 E28.09992
G1 X53.996 Y122.435 E28.82008
G1 X53.279 Y122.435 E28.86239
G1 X61.91 Y131.065 E29.58255
G1 X61.193 Y131.065 E29.62486
G1 X52.563 Y122.435 E30.34498
G1 X51.846 Y122.435 E30.38729
G1 X60.476 Y131.065 E31.10741
G1 X59.759 Y131.065 E31.14972
G1 X51.129 Y122.435 E31.86984
G1 X50.412 Y122.435 E31.91215
G1 X59.043 Y131.065 E32.63231
G1 X58.326 Y131.065 E32.67462
G1 X49.695 Y122.435 E33.39478
G1 X48.979 Y122.435 E33.43703
G1 X57.609 Y131.065 E34.15715
G1 X56.892 Y131.065 E34.19946
G1 X48.262 Y122.435 E34.91958
G1 X47.545 Y122.435 E34.96189
M73 P0 R48
G1 X56.175 Y131.065 E35.68201
G1 X55.459 Y131.065 E35.72426
G1 X46.998 Y122.605 E36.43024
G1 X46.998 Y123.322 E36.47255
G1 X54.742 Y131.065 E37.1187
G1 X54.025 Y131.065 E37.16101
G1 X46.998 Y124.039 E37.74733
G1 X46.998 Y124.755 E37.78958
G1 X53.308 Y131.065 E38.31611
G1 X52.591 Y131.065 E38.35842
G1 X46.998 Y125.472 E38.82512
G1 X46.998 Y126.189 E38.86743
G1 X51.875 Y131.065 E39.27434
G1 X51.158 Y131.065 E39.31665
G1 X46.998 Y126.906 E39.66373
G1 X46.998 Y127.623 E39.70604
G1 X50.441 Y131.065 E39.9933
M73 P1 R48
G1 X49.724 Y131.065 E40.03561
G1 X46.998 Y128.34 E40.26304
G1 X46.998 Y129.056 E40.30529
G1 X49.007 Y131.065 E40.47293
G1 X48.291 Y131.065 E40.51518
G1 X46.998 Y129.773 E40.62303
G1 X46.998 Y130.49 E40.66534
G1 X47.799 Y131.29 E40.73214
M204 S2500
G1 E39.33214 F4800
;WIPE_START
G1 F5760
G1 X47.263 Y130.754 E38.73214
;WIPE_END
G92 E0
G1 X87.665 Y121.36 F7200
G1 E2 F4800
M204 S2000
;TYPE:Gap fill
;WIDTH:0.169841
G1 F3000
G1 X87.893 Y121.165 E2.00383
M204 S2500
G1 E.60383 F4800
;WIPE_START
G1 F5760
G1 X87.665 Y121.36 E.36632
;WIPE_END
G1 E.00383 F4800
G92 E0
G1 X157.773 Y97.027 F7200
G1 E2 F4800
M204 S2000
;TYPE:External perimeter
;WIDTH:0.56
G1 F3000
G1 X157.867 Y96.326 E2.04116
G1 X157.895 Y95.836 E2.06972
G1 X157.9 Y93.414 E2.21067
G1 X157.767 Y92.997 E2.23614
G1 X157.743 Y92.75 E2.25058
G1 X157.767 Y92.503 E2.26502
G1 X157.93 Y91.993 E2.29618
G1 X160.1 Y91.993 E2.42246
G1 X160.1 Y94.767 E2.58389
G1 X160.12 Y94.993 E2.59709
G1 X160.183 Y95.229 E2.6113
G1 X160.286 Y95.451 E2.62554
G1 X160.426 Y95.651 E2.63975
G1 X160.599 Y95.824 E2.65399
G1 X160.799 Y95.964 E2.6682
G1 X161.021 Y96.067 E2.68244
G1 X161.257 Y96.13 E2.69665
G1 X161.483 Y96.15 E2.70985
G1 X168.517 Y96.15 E3.11919
G1 X168.743 Y96.13 E3.13239
G1 X168.979 Y96.067 E3.1466
G1 X169.201 Y95.964 E3.16084
G1 X169.401 Y95.824 E3.17505
G1 X169.574 Y95.651 E3.18929
G1 X169.714 Y95.451 E3.2035
G1 X169.817 Y95.229 E3.21774
G1 X169.88 Y94.993 E3.23195
G1 X169.9 Y94.767 E3.24515
G1 X169.9 Y91.993 E3.40658
G1 X172.07 Y91.993 E3.53286
G1 X172.233 Y92.503 E3.56402
G1 X172.257 Y92.75 E3.57846
G1 X172.233 Y92.997 E3.5929
G1 X172.1 Y93.413 E3.61832
G1 X172.1 Y97.15 E3.83579
G1 X175.941 Y97.148 E4.05932
G1 X176.447 Y97.137 E4.08877
G1 X177.431 Y97.05 E4.14626
G1 X178.889 Y97.05 E4.23111
G1 X179.873 Y97.134 E4.28858
G1 X180.379 Y97.148 E4.31804
G1 X187.411 Y97.15 E4.72727
G1 X187.411 Y137.35 E7.06671
G1 X183.805 Y137.35 E7.27656
G1 X183.305 Y138.85 E7.36857
G1 X176.881 Y138.85 E7.74241
G1 X176.381 Y137.35 E7.83442
G1 X53.619 Y137.35 E14.97855
G1 X53.119 Y138.85 E15.07056
G1 X46.695 Y138.85 E15.4444
G1 X46.195 Y137.35 E15.53641
G1 X42.589 Y137.35 E15.74626
G1 X42.589 Y97.15 E18.0857
G1 X49.621 Y97.148 E18.49493
G1 X50.127 Y97.134 E18.52439
G1 X51.111 Y97.05 E18.58186
G1 X52.569 Y97.05 E18.66671
G1 X53.553 Y97.137 E18.7242
G1 X54.059 Y97.148 E18.75365
G1 X57.9 Y97.15 E18.97718
G1 X57.9 Y93.413 E19.19465
G1 X57.767 Y92.997 E19.22007
G1 X57.743 Y92.75 E19.23451
G1 X57.767 Y92.503 E19.24895
G1 X57.93 Y91.993 E19.28011
G1 X60.1 Y91.993 E19.40639
G1 X60.1 Y94.767 E19.56782
G1 X60.12 Y94.993 E19.58102
G1 X60.183 Y95.229 E19.59523
G1 X60.286 Y95.451 E19.60947
G1 X60.426 Y95.651 E19.62368
G1 X60.599 Y95.824 E19.63792
G1 X60.799 Y95.964 E19.65213
G1 X61.021 Y96.067 E19.66637
G1 X61.257 Y96.13 E19.68058
G1 X61.483 Y96.15 E19.69378
G1 X68.517 Y96.15 E20.10312
G1 X68.743 Y96.13 E20.11632
G1 X68.979 Y96.067 E20.13053
G1 X69.201 Y95.964 E20.14477
G1 X69.401 Y95.824 E20.15898
G1 X69.574 Y95.651 E20.17322
G1 X69.714 Y95.451 E20.18743
G1 X69.817 Y95.229 E20.20167
G1 X69.88 Y94.993 E20.21588
G1 X69.9 Y94.767 E20.22908
G1 X69.9 Y91.993 E20.39051
G1 X72.07 Y91.993 E20.51679
G1 X72.233 Y92.503 E20.54795
G1 X72.257 Y92.75 E20.56239
G1 X72.233 Y92.997 E20.57683
G1 X72.1 Y93.414 E20.6023
G1 X72.105 Y95.836 E20.74325
G1 X72.133 Y96.326 E20.77181
G1 X72.227 Y97.027 E20.81297
G1 X72.952 Y97.111 E20.85544
G1 X73.955 Y97.149 E20.91385
G1 X79.394 Y97.147 E21.23037
G1 X79.899 Y97.13 E21.25978
G1 X80.881 Y97.05 E21.31712
G1 X82.335 Y97.052 E21.40174
G1 X82.822 Y97.106 E21.43025
G1 X83.825 Y97.148 E21.48867
G1 X89.264 Y97.147 E21.80519
G1 X89.769 Y97.133 E21.83459
G1 X90.752 Y97.05 E21.892
G1 X92.205 Y97.05 E21.97656
G1 X92.693 Y97.106 E22.00515
G1 X93.695 Y97.148 E22.06351
G1 X98.639 Y97.15 E22.35123
G1 X99.638 Y97.134 E22.40937
G1 X100.623 Y97.05 E22.4669
G1 X102.079 Y97.05 E22.55163
G1 X103.063 Y97.137 E22.60912
G1 X103.569 Y97.148 E22.63857
G1 X107.9 Y97.15 E22.89061
G1 X107.9 Y93.413 E23.10808
G1 X107.767 Y92.997 E23.1335
G1 X107.743 Y92.75 E23.14794
G1 X107.767 Y92.503 E23.16238
G1 X107.93 Y91.993 E23.19354
G1 X110.1 Y91.993 E23.31982
G1 X110.1 Y94.767 E23.48125
G1 X110.12 Y94.993 E23.49445
G1 X110.183 Y95.229 E23.50866
G1 X110.286 Y95.451 E23.5229
G1 X110.426 Y95.651 E23.53711
G1 X110.599 Y95.824 E23.55135
G1 X110.799 Y95.964 E23.56556
G1 X111.021 Y96.067 E23.5798
G1 X111.257 Y96.13 E23.59401
G1 X111.483 Y96.15 E23.60721
G1 X118.517 Y96.15 E24.01655
G1 X118.743 Y96.13 E24.02975
G1 X118.979 Y96.067 E24.04396
G1 X119.201 Y95.964 E24.0582
G1 X119.401 Y95.824 E24.07241
G1 X119.574 Y95.651 E24.08665
G1 X119.714 Y95.451 E24.10086
G1 X119.817 Y95.229 E24.1151
G1 X119.88 Y94.993 E24.12931
G1 X119.9 Y94.767 E24.14251
G1 X119.9 Y91.993 E24.30394
G1 X122.07 Y91.993 E24.43022
G1 X122.233 Y92.503 E24.46138
G1 X122.257 Y92.75 E24.47582
G1 X122.233 Y92.997 E24.49026
G1 X122.1 Y93.413 E24.51568
G1 X122.1 Y97.15 E24.73315
G1 X126.431 Y97.148 E24.98519
G1 X126.937 Y97.137 E25.01464
G1 X127.921 Y97.05 E25.07213
G1 X129.377 Y97.05 E25.15686
G1 X130.362 Y97.134 E25.21439
G1 X131.361 Y97.15 E25.27253
G1 X136.305 Y97.148 E25.56025
G1 X137.307 Y97.106 E25.61861
G1 X137.795 Y97.05 E25.6472
G1 X139.248 Y97.05 E25.73176
G1 X140.233 Y97.133 E25.78929
G1 X141.231 Y97.15 E25.84738
G1 X146.175 Y97.149 E26.1351
G1 X147.178 Y97.108 E26.19352
G1 X147.666 Y97.051 E26.22211
G1 X148.143 Y97.05 E26.24987
G1 X149.119 Y97.05 E26.30667
G1 X150.101 Y97.131 E26.36401
G1 X150.606 Y97.147 E26.39341
G1 X156.541 Y97.141 E26.7388
G1 X157.051 Y97.111 E26.76853
G1 X157.713 Y97.034 E26.80731
M204 S2500
G1 X158.172 Y97.051 F7200
G1 E25.40731 F4800
;WIPE_START
G1 F5760
G1 X157.867 Y96.326 E24.8337
G1 X157.869 Y96.293 E24.80731
;WIPE_END
G92 E0
G1 X131.565 Y118.937 F7200
G1 E2 F4800
M204 S2000
;TYPE:Perimeter
G1 F3000
G1 X130.025 Y118.85 E2.08976
G1 X126.025 Y118.852 E2.32254
G1 X126.573 Y118.203 E2.37197
G1 X126.871 Y117.688 E2.4066
G1 X127.074 Y117.131 E2.4411
G1 X127.177 Y116.547 E2.47561
G1 X127.177 Y115.953 E2.51018
G1 X127.074 Y115.369 E2.54469
G1 X126.871 Y114.812 E2.57919
G1 X126.597 Y114.338 E2.61105
G1 X126.806 Y114.178 E2.62637
G1 X131.522 Y118.894 E3.0145
M204 S2500
G1 E1.6145 F4800
;WIPE_START
G1 F5760
G1 X130.764 Y118.872 E1.0145
;WIPE_END
G92 E0
G1 X141.384 Y118.852 F7200
G1 E2 F4800
M204 S2000
G1 F3000
G1 X137.202 Y118.85 E2.24337
G1 X136.74 Y120.476 E2.34174
G1 X136.465 Y120.324 E2.36003
G1 X134.566 Y119.538 E2.47963
G1 X135.125 Y119.334 E2.51426
G1 X135.638 Y119.038 E2.54873
G1 X136.093 Y118.657 E2.58327
G1 X136.474 Y118.202 E2.61781
G1 X136.771 Y117.688 E2.65236
G1 X136.974 Y117.131 E2.68686
G1 X137.077 Y116.547 E2.72137
G1 X137.077 Y115.953 E2.75594
G1 X136.974 Y115.369 E2.79045
G1 X136.771 Y114.812 E2.82495
G1 X136.497 Y114.338 E2.85681
G1 X136.706 Y114.178 E2.87213
G1 X141.342 Y118.81 E3.25351
M204 S2500
G1 E1.85351 F4800
;WIPE_START
G1 F5760
G1 X140.584 Y118.817 E1.25351
;WIPE_END
G92 E0
G1 X151.285 Y118.853 F7200
G1 E2 F4800
M204 S2000
G1 F3000
G1 X145.821 Y118.857 E2.31798
G1 X146.373 Y118.203 E2.36778
G1 X146.671 Y117.688 E2.40241
G1 X146.874 Y117.131 E2.43691
G1 X146.977 Y116.547 E2.47142
G1 X146.977 Y115.953 E2.50599
G1 X146.874 Y115.369 E2.5405
G1 X146.671 Y114.812 E2.575
G1 X146.397 Y114.338 E2.60686
G1 X146.606 Y114.178 E2.62218
G1 X151.242 Y118.811 E3.0036
M204 S2500
G1 E1.6036 F4800
;WIPE_START
G1 F5760
G1 X150.484 Y118.817 E1.0036
;WIPE_END
G92 E0
G1 X161.186 Y118.853 F7200
G1 E2 F4800
M204 S2000
G1 F3000
G1 X155.725 Y118.852 E2.3178
G1 X156.273 Y118.203 E2.36723
G1 X156.571 Y117.688 E2.40186
G1 X156.774 Y117.131 E2.43636
G1 X156.877 Y116.547 E2.47087
G1 X156.877 Y115.953 E2.50544
G1 X156.774 Y115.369 E2.53995
G1 X156.571 Y114.812 E2.57445
G1 X156.297 Y114.338 E2.60631
G1 X156.506 Y114.178 E2.62163
G1 X161.143 Y118.811 E3.00309
M204 S2500
G1 E1.60309 F4800
;WIPE_START
G1 F5760
G1 X160.385 Y118.817 E1.00309
;WIPE_END
G92 E0
G1 X171.082 Y118.85 F7200
G1 E2 F4800
M204 S2000
G1 F3000
G1 X165.62 Y118.857 E2.31786
G1 X166.173 Y118.203 E2.3677
G1 X166.471 Y117.688 E2.40233
G1 X166.674 Y117.131 E2.43683
G1 X166.777 Y116.547 E2.47134
G1 X166.777 Y115.953 E2.50591
G1 X166.674 Y115.369 E2.54042
G1 X166.471 Y114.812 E2.57492
G1 X166.197 Y114.338 E2.60678
G1 X166.406 Y114.178 E2.6221
G1 X171.039 Y118.808 E3.00327
M204 S2500
G1 E1.60327 F4800
;WIPE_START
G1 F5760
G1 X170.281 Y118.815 E1.00327
;WIPE_END
G92 E0
G1 X180.986 Y118.854 F7200
G1 E2 F4800
M204 S2000
G1 F3000
G1 X175.523 Y118.855 E2.31792
G1 X176.073 Y118.203 E2.36756
G1 X176.371 Y117.688 E2.40219
G1 X176.574 Y117.131 E2.43669
G1 X176.677 Y116.547 E2.4712
G1 X176.677 Y115.953 E2.50577
G1 X176.574 Y115.369 E2.54028
G1 X176.371 Y114.812 E2.57478
G1 X176.097 Y114.338 E2.60664
G1 X176.306 Y114.178 E2.62196
G1 X180.943 Y118.811 E3.00342
M204 S2500
G1 E1.60342 F4800
;WIPE_START
G1 F5760
G1 X180.185 Y118.817 E1.00342
;WIPE_END
G92 E0
G1 X176.99 Y97.659 F7200
G1 E2 F4800
M204 S2000
;TYPE:External perimeter
G1 F3000
G1 X177.939 Y97.46 E2.05643
G1 X178.435 Y97.46 E2.08529
