; Postprocessed by [ArcWelder](https://github.com/FormerLurker/ArcWelderLib)
; Copyright(C) 2021 - Brad Hochgesang
; Version: 1.2.0, Branch: HEAD, BuildDate: 2021-11-21T20:25:43Z
; resolution=0.05mm
; path_tolerance=5.0%
; max_radius=9999.00mm
; default_xyz_precision=3
; default_e_precision=5
; extrusion_rate_variance_percent=5.0%

; generated by AnycubicSlicer 1.1.5 on 2023-10-07 at 18:15:57 UTC




; 

; external perimeters extrusion width = 0.42mm
; perimeters extrusion width = 0.45mm
; infill extrusion width = 0.45mm
; solid infill extrusion width = 0.45mm
; top infill extrusion width = 0.42mm
; first layer extrusion width = 0.50mm

;TYPE:Custom
G90 ; use absolute coordinates
M83 ; extruder relative mode
M140 S60 ; set bed temp
M190 S60 ; wait for bed temp
M104 S215 ; set extruder temp
M109 S215 ; wait for extruder temp
G28                                        ; move X/Y/Z to min endstops
G1 Z0.28                                   ; lift nozzle a bit 
G92 E0 
G1 Y3 F2400                                    ; zero the extruded length 
G1 X180  E40 F500                       ; Extrude 25mm of filament in a 5cm line. 
G92 E0                                     ; zero the extruded length again 
G1 E-0.2 F3000                                ; Retract a little 
G1 X181 F4000                              ; Quickly wipe away from the filament line
M117
G21 ; set units to millimeters
G90 ; use absolute coordinates
M82 ; use absolute distances for extrusion
G92 E0
M107
;LAYER_CHANGE
;Z:0.25
;HEIGHT:0.25
; BEFORE_LAYER_CHANGE 0 @ 0.25mm
G1 Z.25 F18000
; AFTER_LAYER_CHANGE 0 @ 0.25mm
G1 E-2.5 F4800
G92 E0
M204 S20000
G1 X114.588 Y81.953 F18000
G1 E2.5 F4800
M204 S5000
;TYPE:External perimeter
;WIDTH:0.499999
G1 X118.423 Y81.953 E2.67436
G1 X123.25 Y86.78 E2.98472
G1 X123.25 Y132.826 E5.07819
G1 X118.623 Y137.453 E5.37569
G1 X101.377 Y137.453 E6.15977
G1 X96.75 Y132.826 E6.45727
G1 X96.75 Y86.68 E8.55529
G1 X101.477 Y81.953 E8.85922
G1 X105.393 Y81.953 E9.03726
G2 X105.616 Y81.730 I-0.001 J-0.224 E9.05289
G1 X105.616 Y75.532 E9.33468
G1 X114.365 Y75.532 E9.73245
G1 X114.365 Y81.73 E10.01424
G2 X114.534 Y81.928 I0.184 J0.014 E10.02704
M204 S20000
G1 X114.692 Y82.339 F18000
G1 X114.509 Y82.387
M204 S5000
;TYPE:Perimeter
G1 F4800
G1 X114.588 Y82.399 E10.03067
G1 X118.239 Y82.399 E10.19666
G1 X122.804 Y86.964 E10.49018
G1 X122.804 Y132.642 E12.56692
G1 X118.439 Y137.007 E12.84758
G1 X101.561 Y137.007 E13.61493
G1 X97.196 Y132.642 E13.89559
G1 X97.196 Y86.864 E15.97687
G1 X101.661 Y82.399 E16.26396
G1 X105.393 Y82.399 E16.43363
G2 X106.062 Y81.730 I0.000 J-0.669 E16.48102
G1 X106.062 Y75.978 E16.74253
G1 X113.919 Y75.978 E17.09975
G1 X113.919 Y81.73 E17.36126
G2 X114.450 Y82.378 I0.646 J0.012 E17.40235
M204 S20000
;WIPE_START
G1 F14400
G1 X114.588 Y82.399 E17.35815
G1 X118.239 Y82.399 E16.202
G1 X121.141 Y85.301 E14.90235
;WIPE_END
G92 E0
G1 X118.53 Y86.451 F18000
G1 E2.5 F4800
M204 S5000
;TYPE:External perimeter
G3 X118.753 Y86.674 I0.001 J0.222 E2.51554
G1 X118.753 Y108.23 E3.49558
G3 X118.530 Y108.453 I-0.222 J0.001 E3.51110
G1 X101.471 Y108.453 E4.28668
G3 X101.248 Y108.230 I0.001 J-0.224 E4.30217
G1 X101.248 Y86.674 E5.28221
G3 X101.471 Y86.451 I0.222 J-0.001 E5.29775
G1 X118.47 Y86.451 E6.07061
M204 S20000
G1 X118.65 Y86.33 F18000
G1 X118.613 Y86.021
M204 S5000
;TYPE:Perimeter
G1 F4800
G3 X119.199 Y86.674 I-0.061 J0.644 E6.11424
G1 X119.199 Y108.23 E7.09428
G3 X118.530 Y108.899 I-0.669 J0.000 E7.14172
G1 X101.471 Y108.899 E7.9173
G3 X100.802 Y108.230 I-0.000 J-0.669 E7.96474
G1 X100.802 Y86.674 E8.94478
G3 X101.471 Y86.005 I0.669 J0.000 E8.99226
G1 X118.554 Y86.009 E9.76893
M204 S20000
;WIPE_START
G1 F14400
G3 X119.199 Y86.674 I-0.018 J0.663 E9.44603
G1 X119.199 Y93.549 E7.26893
;WIPE_END
G92 E0
G1 X118.53 Y132.956 F18000
G1 E2.5 F4800
M204 S5000
;TYPE:External perimeter
G1 X101.471 Y132.956 E3.27558
G3 X101.248 Y132.733 I-0.001 J-0.222 E3.29112
G1 X101.248 Y111.176 E4.2712
G3 X101.471 Y110.953 I0.224 J0.001 E4.28669
G1 X118.53 Y110.953 E5.06227
G3 X118.753 Y111.176 I0.001 J0.222 E5.07779
G1 X118.753 Y132.733 E6.05787
G3 X118.585 Y132.933 I-0.182 J0.017 E6.07070
M204 S20000
G1 X118.426 Y133.342 F18000
G1 X118.613 Y133.386
M204 S5000
;TYPE:Perimeter
G1 F4800
G1 X118.53 Y133.402 E6.07454
G1 X101.471 Y133.402 E6.85012
G3 X100.802 Y132.733 I0.000 J-0.669 E6.89760
G1 X100.802 Y111.176 E7.87768
G3 X101.471 Y110.507 I0.669 J-0.000 E7.92512
G1 X118.53 Y110.507 E8.7007
G3 X119.199 Y111.176 I0.000 J0.669 E8.74814
G1 X119.199 Y132.733 E9.72822
G3 X118.672 Y133.375 I-0.640 J0.012 E9.76912
M204 S20000
;WIPE_START
G1 F14400
G1 X118.53 Y133.402 E9.72335
G1 X110.78 Y133.402 E7.26912
;WIPE_END
G92 E0
G1 X113.74 Y77.062 F18000
G1 E2.5 F4800
M204 S5000
;TYPE:Solid infill
;WIDTH:0.501602
G1 X113.035 Y76.357 E2.54549
G1 X112.402 Y76.357 E2.57437
G1 X113.539 Y77.495 E2.64777
G1 X113.539 Y78.128 E2.67665
G1 X111.768 Y76.357 E2.79093
G1 X111.135 Y76.357 E2.81981
G1 X113.539 Y78.762 E2.97497
G1 X113.539 Y79.395 E3.00385
G1 X110.501 Y76.357 E3.19989
G1 X109.868 Y76.357 E3.22877
G1 X113.539 Y80.029 E3.46568
G1 X113.539 Y80.662 E3.49456
G1 X109.234 Y76.357 E3.77235
G1 X108.601 Y76.357 E3.80123
G1 X113.74 Y81.497 E4.13287
M204 S20000
;WIPE_START
G1 F14400
G1 X108.601 Y76.357 E1.83123
G1 X109.227 Y76.357 E1.63287
;WIPE_END
G92 E0
G1 X117.355 Y82.578 F18000
G1 E2.5 F4800
M204 S5000
G1 X122.424 Y87.647 E2.82709
G1 X122.424 Y88.28 E2.85597
G1 X116.923 Y82.779 E3.21094
G1 X116.289 Y82.779 E3.23987
G1 X122.424 Y88.914 E3.63575
G1 X122.424 Y89.547 E3.66463
G1 X119.579 Y86.702 E3.84821
G2 X118.502 Y85.625 I-1.049 J-0.028 E3.92569
G1 X115.656 Y82.779 E4.10934
G1 X115.022 Y82.779 E4.13827
G1 X117.869 Y85.625 E4.32195
G1 X117.235 Y85.625 E4.35088
G1 X107.967 Y76.357 E4.94892
G1 X107.334 Y76.357 E4.9778
G1 X116.602 Y85.625 E5.57584
G1 X115.968 Y85.625 E5.60477
G1 X106.7 Y76.357 E6.20281
G1 X106.442 Y76.357 E6.21458
G1 X106.442 Y76.732 E6.23169
G1 X115.335 Y85.625 E6.80554
G1 X114.701 Y85.625 E6.83447
G1 X106.442 Y77.366 E7.3674
G1 X106.442 Y77.999 E7.39628
G1 X114.068 Y85.625 E7.88837
G1 X113.434 Y85.625 E7.9173
G1 X106.442 Y78.633 E8.36848
G1 X106.442 Y79.266 E8.39736
G1 X112.801 Y85.625 E8.80769
G1 X112.167 Y85.625 E8.83662
G1 X106.442 Y79.9 E9.20604
G1 X106.442 Y80.533 E9.23492
G1 X111.534 Y85.625 E9.5635
G1 X110.9 Y85.625 E9.59243
G1 X106.442 Y81.167 E9.88009
G1 X106.435 Y81.793 E9.90865
G1 X110.267 Y85.625 E10.15592
G1 X109.633 Y85.625 E10.18485
G1 X106.282 Y82.274 E10.40108
G3 X105.976 Y82.602 I-0.746 J-0.389 E10.42172
G1 X109 Y85.625 E10.61682
G1 X108.366 Y85.625 E10.64575
G1 X105.504 Y82.763 E10.83043
G3 X104.886 Y82.779 I-0.359 J-1.904 E10.85869
G1 X107.733 Y85.625 E11.04237
G1 X107.099 Y85.625 E11.0713
G1 X104.253 Y82.779 E11.25495
G1 X103.619 Y82.779 E11.28388
G1 X106.466 Y85.625 E11.46756
G1 X105.832 Y85.625 E11.49649
G1 X102.986 Y82.779 E11.68014
G1 X102.352 Y82.779 E11.70907
G1 X105.199 Y85.625 E11.89275
G1 X104.565 Y85.625 E11.92168
G1 X101.769 Y82.829 E12.1021
G1 X101.452 Y83.145 E12.12252
G1 X103.932 Y85.625 E12.28255
G1 X103.298 Y85.625 E12.31148
G1 X101.135 Y83.462 E12.45105
G1 X100.818 Y83.779 E12.47151
G1 X102.665 Y85.625 E12.59066
G1 X102.031 Y85.625 E12.61959
G1 X100.502 Y84.096 E12.71825
G1 X100.185 Y84.412 E12.73867
G1 X101.407 Y85.635 E12.81756
G2 X100.924 Y85.785 I-0.007 J0.830 E12.84090
G1 X99.868 Y84.729 E12.90904
G1 X99.551 Y85.046 E12.9295
G1 X100.599 Y86.094 E12.99713
G2 X100.440 Y86.568 I0.669 J0.488 E13.02021
G1 X99.235 Y85.363 E13.09797
G1 X98.918 Y85.679 E13.11839
G1 X100.422 Y87.184 E13.21547
G1 X100.422 Y87.817 E13.24435
G1 X98.601 Y85.996 E13.36186
G1 X98.284 Y86.313 E13.38232
G1 X100.422 Y88.451 E13.52028
G1 X100.422 Y89.084 E13.54916
G1 X97.968 Y86.63 E13.70751
G1 X97.651 Y86.946 E13.72793
G1 X100.422 Y89.718 E13.90677
G1 X100.422 Y90.351 E13.93565
G1 X97.576 Y87.505 E14.1193
G1 X97.576 Y88.138 E14.14818
G1 X100.422 Y90.985 E14.33186
G1 X100.422 Y91.618 E14.36074
G1 X97.576 Y88.772 E14.54439
G1 X97.576 Y89.405 E14.57327
G1 X100.422 Y92.252 E14.75695
G1 X100.422 Y92.885 E14.78583
G1 X97.576 Y90.039 E14.96948
G1 X97.576 Y90.672 E14.99836
G1 X100.422 Y93.519 E15.18204
G1 X100.422 Y94.152 E15.21092
G1 X97.576 Y91.306 E15.39457
G1 X97.576 Y91.939 E15.42345
G1 X100.422 Y94.786 E15.60713
G1 X100.422 Y95.419 E15.63601
G1 X97.576 Y92.573 E15.81966
G1 X97.576 Y93.206 E15.84854
G1 X100.422 Y96.053 E16.03222
G1 X100.422 Y96.686 E16.0611
G1 X97.576 Y93.84 E16.24475
G1 X97.576 Y94.473 E16.27363
G1 X100.422 Y97.32 E16.45731
G1 X100.422 Y97.953 E16.48619
G1 X97.576 Y95.107 E16.66984
G1 X97.576 Y95.74 E16.69872
G1 X100.422 Y98.587 E16.8824
G1 X100.422 Y99.22 E16.91128
G1 X97.576 Y96.374 E17.09493
G1 X97.576 Y97.007 E17.12381
G1 X100.422 Y99.854 E17.30749
G1 X100.422 Y100.487 E17.33637
G1 X97.576 Y97.641 E17.52002
G1 X97.576 Y98.274 E17.5489
G1 X100.422 Y101.121 E17.73258
G1 X100.422 Y101.754 E17.76146
G1 X97.576 Y98.908 E17.94511
G1 X97.576 Y99.541 E17.97399
G1 X100.422 Y102.388 E18.15767
G1 X100.422 Y103.021 E18.18655
G1 X97.576 Y100.175 E18.3702
G1 X97.576 Y100.808 E18.39908
G1 X100.422 Y103.655 E18.58276
G1 X100.422 Y104.288 E18.61164
G1 X97.576 Y101.442 E18.79529
G1 X97.576 Y102.075 E18.82417
G1 X100.422 Y104.922 E19.00785
G1 X100.422 Y105.555 E19.03673
G1 X97.576 Y102.709 E19.22038
G1 X97.576 Y103.342 E19.24926
G1 X100.422 Y106.189 E19.43294
G1 X100.422 Y106.822 E19.46182
G1 X97.576 Y103.976 E19.64547
G1 X97.576 Y104.609 E19.67435
G1 X100.623 Y107.657 E19.871
M204 S20000
;WIPE_START
G1 F14400
G1 X97.576 Y104.609 E18.50622
G1 X97.576 Y103.976 E18.30577
G1 X99.663 Y106.063 E17.371
;WIPE_END
G92 E0
G1 X119.378 Y87.134 F18000
G1 E2.5 F4800
M204 S5000
G1 X122.424 Y90.181 E2.69658
G1 X122.424 Y90.814 E2.72546
G1 X119.579 Y87.969 E2.90904
G1 X119.579 Y88.602 E2.93792
G1 X122.424 Y91.448 E3.12153
G1 X122.424 Y92.081 E3.15041
G1 X119.579 Y89.236 E3.33399
G1 X119.579 Y89.869 E3.36287
G1 X122.424 Y92.715 E3.54648
G1 X122.424 Y93.348 E3.57536
G1 X119.579 Y90.503 E3.75894
G1 X119.579 Y91.136 E3.78782
G1 X122.424 Y93.982 E3.97143
G1 X122.424 Y94.615 E4.00031
G1 X119.579 Y91.77 E4.18389
G1 X119.579 Y92.403 E4.21277
G1 X122.424 Y95.249 E4.39638
G1 X122.424 Y95.882 E4.42526
G1 X119.579 Y93.037 E4.60884
G1 X119.579 Y93.67 E4.63772
G1 X122.424 Y96.516 E4.82133
G1 X122.424 Y97.149 E4.85021
G1 X119.579 Y94.304 E5.03379
G1 X119.579 Y94.937 E5.06267
G1 X122.424 Y97.783 E5.24628
G1 X122.424 Y98.416 E5.27516
G1 X119.579 Y95.571 E5.45874
G1 X119.579 Y96.204 E5.48762
G1 X122.424 Y99.05 E5.67123
G1 X122.424 Y99.683 E5.70011
G1 X119.579 Y96.838 E5.88369
G1 X119.579 Y97.471 E5.91257
G1 X122.424 Y100.317 E6.09618
G1 X122.424 Y100.95 E6.12506
G1 X119.579 Y98.105 E6.30864
G1 X119.579 Y98.738 E6.33752
G1 X122.424 Y101.584 E6.52113
G1 X122.424 Y102.217 E6.55001
G1 X119.579 Y99.372 E6.73359
G1 X119.579 Y100.005 E6.76247
G1 X122.424 Y102.851 E6.94608
G1 X122.424 Y103.484 E6.97496
G1 X119.579 Y100.639 E7.15854
G1 X119.579 Y101.272 E7.18742
G1 X122.424 Y104.118 E7.37103
G1 X122.424 Y104.751 E7.39991
G1 X119.579 Y101.906 E7.58349
G1 X119.579 Y102.539 E7.61237
G1 X122.424 Y105.385 E7.79598
G1 X122.424 Y106.018 E7.82486
G1 X119.579 Y103.173 E8.00844
G1 X119.579 Y103.806 E8.03732
G1 X122.424 Y106.652 E8.22093
G1 X122.424 Y107.285 E8.24981
G1 X119.579 Y104.44 E8.43339
G1 X119.579 Y105.073 E8.46227
G1 X122.424 Y107.919 E8.64588
G1 X122.424 Y108.552 E8.67476
G1 X119.579 Y105.707 E8.85834
G1 X119.579 Y106.34 E8.88722
G1 X122.424 Y109.186 E9.07083
G1 X122.424 Y109.819 E9.09971
G1 X119.579 Y106.974 E9.28329
G1 X119.579 Y107.607 E9.31217
G1 X122.424 Y110.453 E9.49578
G1 X122.424 Y111.086 E9.52466
G1 X119.579 Y108.241 E9.70824
G3 X119.441 Y108.736 I-0.894 J0.017 E9.73193
G1 X122.424 Y111.72 E9.92445
G1 X122.424 Y112.353 E9.95333
G1 X119.147 Y109.076 E10.16479
G3 X118.689 Y109.252 I-0.487 J-0.583 E10.18748
G1 X122.424 Y112.987 E10.42849
G1 X122.424 Y113.62 E10.45737
G1 X118.083 Y109.279 E10.73749
G1 X117.449 Y109.279 E10.76642
G1 X118.298 Y110.127 E10.82117
G1 X117.664 Y110.127 E10.8501
G1 X116.816 Y109.279 E10.90482
G1 X116.182 Y109.279 E10.93375
G1 X117.031 Y110.127 E10.9885
G1 X116.397 Y110.127 E11.01743
G1 X115.549 Y109.279 E11.07215
G1 X114.915 Y109.279 E11.10108
G1 X115.764 Y110.127 E11.15583
G1 X115.13 Y110.127 E11.18476
G1 X114.282 Y109.279 E11.23948
G1 X113.648 Y109.279 E11.26841
G1 X114.497 Y110.127 E11.32316
G1 X113.863 Y110.127 E11.35209
G1 X113.015 Y109.279 E11.40681
G1 X112.381 Y109.279 E11.43574
G1 X113.23 Y110.127 E11.49049
G1 X112.596 Y110.127 E11.51942
G1 X111.748 Y109.279 E11.57414
G1 X111.114 Y109.279 E11.60307
G1 X111.963 Y110.127 E11.65782
G1 X111.329 Y110.127 E11.68675
G1 X110.481 Y109.279 E11.74147
G1 X109.847 Y109.279 E11.7704
G1 X110.696 Y110.127 E11.82515
G1 X110.062 Y110.127 E11.85408
G1 X109.214 Y109.279 E11.9088
G1 X108.58 Y109.279 E11.93773
G1 X109.429 Y110.127 E11.99248
G1 X108.795 Y110.127 E12.02141
G1 X107.947 Y109.279 E12.07613
G1 X107.313 Y109.279 E12.10506
G1 X108.162 Y110.127 E12.15981
G1 X107.528 Y110.127 E12.18874
G1 X106.68 Y109.279 E12.24346
G1 X106.046 Y109.279 E12.27239
G1 X106.895 Y110.127 E12.32714
G1 X106.261 Y110.127 E12.35607
G1 X105.413 Y109.279 E12.41079
G1 X104.779 Y109.279 E12.43972
G1 X105.628 Y110.127 E12.49447
G1 X104.994 Y110.127 E12.5234
G1 X104.146 Y109.279 E12.57812
G1 X103.512 Y109.279 E12.60705
G1 X104.361 Y110.127 E12.6618
G1 X103.727 Y110.127 E12.69073
G1 X102.879 Y109.279 E12.74545
G1 X102.245 Y109.279 E12.77438
G1 X103.094 Y110.127 E12.82913
G1 X102.46 Y110.127 E12.85806
G1 X101.612 Y109.279 E12.91278
G3 X100.422 Y108.089 I-0.123 J-1.067 E13.00066
G1 X97.576 Y105.243 E13.18431
G1 X97.576 Y105.876 E13.21319
G1 X101.827 Y110.127 E13.4875
G2 X101.234 Y110.168 I-0.185 J1.633 E13.51473
G1 X97.576 Y106.51 E13.75077
G1 X97.576 Y107.143 E13.77965
G1 X100.803 Y110.371 E13.98791
G2 X100.531 Y110.732 I0.451 J0.623 E14.00879
G1 X97.576 Y107.777 E14.19947
G1 X97.576 Y108.41 E14.22835
G1 X100.422 Y111.257 E14.41203
G1 X100.422 Y111.89 E14.44091
G1 X97.576 Y109.044 E14.62456
G1 X97.576 Y109.677 E14.65344
G1 X100.422 Y112.524 E14.83712
G1 X100.422 Y113.157 E14.866
G1 X97.576 Y110.311 E15.04965
G1 X97.576 Y110.944 E15.07853
G1 X100.422 Y113.791 E15.26221
G1 X100.422 Y114.424 E15.29109
G1 X97.576 Y111.578 E15.47474
G1 X97.576 Y112.211 E15.50362
G1 X100.422 Y115.058 E15.6873
G1 X100.422 Y115.691 E15.71618
G1 X97.576 Y112.845 E15.89983
G1 X97.576 Y113.478 E15.92871
G1 X100.422 Y116.325 E16.11239
G1 X100.422 Y116.958 E16.14127
G1 X97.576 Y114.112 E16.32492
G1 X97.576 Y114.745 E16.3538
G1 X100.422 Y117.592 E16.53748
G1 X100.422 Y118.225 E16.56636
G1 X97.576 Y115.379 E16.75001
G1 X97.576 Y116.012 E16.77889
G1 X100.422 Y118.859 E16.96257
G1 X100.422 Y119.492 E16.99145
G1 X97.576 Y116.646 E17.1751
G1 X97.576 Y117.279 E17.20398
G1 X100.422 Y120.126 E17.38766
G1 X100.422 Y120.759 E17.41654
G1 X97.576 Y117.913 E17.60019
G1 X97.576 Y118.546 E17.62907
G1 X100.422 Y121.393 E17.81275
G1 X100.422 Y122.026 E17.84163
G1 X97.576 Y119.18 E18.02528
G1 X97.576 Y119.813 E18.05416
G1 X100.422 Y122.66 E18.23784
G1 X100.422 Y123.293 E18.26672
G1 X97.576 Y120.447 E18.45037
G1 X97.576 Y121.08 E18.47925
G1 X100.422 Y123.927 E18.66293
G1 X100.422 Y124.56 E18.69181
G1 X97.576 Y121.714 E18.87546
G1 X97.576 Y122.347 E18.90434
G1 X100.422 Y125.194 E19.08802
G1 X100.422 Y125.827 E19.1169
G1 X97.576 Y122.981 E19.30055
G1 X97.576 Y123.614 E19.32943
G1 X100.422 Y126.461 E19.51311
G1 X100.422 Y127.094 E19.54199
G1 X97.576 Y124.248 E19.72564
G1 X97.576 Y124.881 E19.75452
G1 X100.422 Y127.728 E19.9382
G1 X100.422 Y128.361 E19.96708
G1 X97.576 Y125.515 E20.15073
G1 X97.576 Y126.148 E20.17961
G1 X100.422 Y128.995 E20.36329
G1 X100.422 Y129.628 E20.39217
G1 X97.576 Y126.782 E20.57582
G1 X97.576 Y127.415 E20.6047
G1 X100.422 Y130.262 E20.78838
G1 X100.422 Y130.895 E20.81726
G1 X97.576 Y128.049 E21.00091
G1 X97.576 Y128.682 E21.02979
G1 X100.422 Y131.529 E21.21347
G1 X100.422 Y132.162 E21.24235
G1 X97.375 Y129.115 E21.43897
M204 S20000
;WIPE_START
G1 F14400
G1 X100.422 Y132.162 E20.07442
G1 X100.422 Y131.529 E19.87397
G1 X98.335 Y129.441 E18.93897
;WIPE_END
