; generated by AnycubicSlicer 1.1.5 on 2023-10-04 at 16:13:40 UTC

; 

; external perimeters extrusion width = 0.45mm
; perimeters extrusion width = 0.40mm
; infill extrusion width = 0.45mm
; solid infill extrusion width = 0.50mm
; top infill extrusion width = 0.45mm
; first layer extrusion width = 0.56mm

M73 P0 R23
M201 X2500 Y2500 Z800 E2500 ; sets maximum accelerations, mm/sec^2
M203 X300 Y250 Z8 E80 ; sets maximum feedrates, mm / sec
M204 S2500 T2500 ; sets acceleration (S) and retract acceleration (R), mm/sec^2
M205 X15.00 Y10.00 Z2.00 E10.00 ; sets the jerk limits, mm/sec
M205 S0 T0 ; sets the minimum extruding and travel feed rate, mm/sec
;TYPE:Custom
G90 ; use absolute coordinates
M83 ; extruder relative mode
M104 S195 ; set extruder temp
M140 S40 ; set bed temp
M190 S40 ; wait for bed temp
M109 S195 ; wait for extruder temp
G28                                        ; move X/Y/Z to min endstops
G1 Z0.28                                   ; lift nozzle a bit 
G92 E0 
G1 Y3 F1800                                    ; zero the extruded length 
G1 X60  E25 F500                       ; Extrude 25mm of filament in a 5cm line. 
G92 E0                                     ; zero the extruded length again 
G1 E-2 F500                                ; Retract a little 
G1 X70 F4000                              ; Quickly wipe away from the filament line
M117
G21 ; set units to millimeters
G90 ; use absolute coordinates
M82 ; use absolute distances for extrusion
G92 E0
; Filament gcode
M107
;LAYER_CHANGE
;Z:0.28
;HEIGHT:0.28
; BEFORE_LAYER_CHANGE 0 @ 0.28mm
G1 E-2 F4800
G92 E0
G1 Z.28 F7200
; AFTER_LAYER_CHANGE 0 @ 0.28mm
G1 X73.524 Y87.513
G1 E2 F4800
M204 S2000
;TYPE:Skirt/Brim
;WIDTH:0.56
G1 F3000
G1 X73.967 Y87.209 E2.03127
G1 X74.459 Y86.998 E2.06242
G1 X74.861 Y86.898 E2.08653
G1 X75.758 Y86.878 E2.13874
G1 X78.51 Y86.904 E2.2989
G1 X79.038 Y87.027 E2.33045
G1 X79.489 Y87.223 E2.35907
G1 X79.893 Y87.495 E2.38741
G1 X80.375 Y87.979 E2.42716
G1 X80.649 Y88.388 E2.45581
G1 X80.874 Y88.932 E2.49007
G1 X80.97 Y89.408 E2.51833
G1 X80.975 Y91.06 E2.61447
G1 X84.469 Y91.074 E2.8178
G1 X84.496 Y89.365 E2.91727
G1 X84.599 Y88.927 E2.94345
G1 X84.838 Y88.38 E2.97819
G1 X85.146 Y87.951 E3.00892
G1 X85.567 Y87.542 E3.04308
G1 X85.974 Y87.27 E3.07157
G1 X86.465 Y87.06 E3.10265
G1 X87.091 Y86.939 E3.13975
G1 X90.395 Y86.957 E3.33203
G1 X91.018 Y87.084 E3.36903
G1 X91.453 Y87.27 E3.39656
G1 X91.815 Y87.497 E3.42143
G1 X92.327 Y87.987 E3.46267
G1 X92.67 Y88.493 E3.49824
G1 X92.89 Y89.047 E3.53293
G1 X92.966 Y89.432 E3.55577
G1 X92.976 Y89.701 E3.57144
G1 X93.016 Y89.851 E3.58047
G1 X93.127 Y90.603 E3.62471
G1 X93.112 Y91.266 E3.6633
G1 X92.969 Y92.128 E3.71415
G1 X137.461 Y92.368 E6.3034
G1 X137.327 Y91.505 E6.35422
G1 X137.32 Y90.842 E6.39281
G1 X137.438 Y90.092 E6.43699
G1 X137.48 Y89.941 E6.44611
G1 X137.493 Y89.672 E6.46178
G1 X137.574 Y89.289 E6.48456
G1 X137.771 Y88.793 E6.51562
G1 X138.019 Y88.389 E6.54321
G1 X138.551 Y87.842 E6.58762
G1 X139.071 Y87.506 E6.62365
G1 X139.69 Y87.282 E6.66196
G1 X140.097 Y87.225 E6.68588
G1 X143.395 Y87.243 E6.87781
G1 X143.972 Y87.357 E6.91204
G1 X144.464 Y87.562 E6.94306
G1 X144.87 Y87.829 E6.97134
G1 X145.353 Y88.306 E7.01084
G1 X145.603 Y88.657 E7.03592
G1 X145.861 Y89.247 E7.07339
G1 X145.967 Y89.738 E7.10262
G1 X145.969 Y91.413 E7.2001
G1 X149.467 Y91.427 E7.40367
G1 X149.49 Y89.764 E7.50046
G1 X149.597 Y89.28 E7.52931
G1 X149.809 Y88.782 E7.56081
G1 X150.15 Y88.297 E7.59531
G1 X150.62 Y87.85 E7.63306
G1 X150.988 Y87.613 E7.65853
G1 X151.464 Y87.412 E7.6886
G1 X152.09 Y87.29 E7.72572
G1 X155.394 Y87.308 E7.918
G1 X156.037 Y87.443 E7.95624
G1 X156.633 Y87.722 E7.99454
G1 X156.973 Y87.982 E8.01945
G1 X157.452 Y88.494 E8.06025
G1 X157.677 Y88.861 E8.0853
G1 X157.87 Y89.338 E8.11525
G1 X157.962 Y89.759 E8.14033
G1 X157.974 Y90.047 E8.1571
G1 X158.013 Y90.191 E8.16578
G1 X158.124 Y90.937 E8.20967
G1 X158.104 Y91.682 E8.25304
G1 X157.964 Y92.408 E8.29607
G1 X157.96 Y93.168 E8.3403
G1 X158.385 Y93.605 E8.37577
G1 X158.646 Y94.017 E8.40415
G1 X158.857 Y94.552 E8.43762
G1 X158.95 Y95.081 E8.46888
G1 X158.795 Y123.725 E10.13584
G1 X159.303 Y123.923 E10.16757
G1 X160.006 Y124.403 E10.21711
G1 X160.409 Y124.846 E10.25196
G1 X160.755 Y125.492 E10.29461
G1 X160.921 Y126.207 E10.33733
G1 X160.888 Y130.497 E10.58699
G1 X160.785 Y130.977 E10.61556
G1 X160.582 Y131.462 E10.64616
G1 X160.35 Y131.828 E10.67138
G1 X159.944 Y132.24 E10.70504
G1 X160.345 Y132.657 E10.73871
G1 X160.575 Y133.028 E10.76411
G1 X160.788 Y133.569 E10.79795
G1 X160.879 Y134.094 E10.82896
G1 X160.856 Y138.281 E11.07263
G1 X160.708 Y138.925 E11.11108
G1 X160.408 Y139.521 E11.14991
G1 X159.882 Y140.109 E11.19582
G1 X159.28 Y140.513 E11.23801
G1 X158.702 Y140.749 E11.27434
G1 X158.689 Y141.485 E11.31718
G1 X158.585 Y141.967 E11.34588
G1 X158.349 Y142.512 E11.38044
G1 X158.032 Y142.959 E11.41233
G1 X157.558 Y143.409 E11.45037
G1 X157.19 Y143.646 E11.47584
G1 X156.664 Y143.863 E11.50895
G1 X156.088 Y143.969 E11.54303
G1 X73.785 Y143.524 E16.33272
G1 X73.142 Y143.389 E16.37096
G1 X72.546 Y143.11 E16.40926
G1 X72.208 Y142.852 E16.43401
G1 X71.761 Y142.383 E16.47171
G1 X71.502 Y141.969 E16.50013
G1 X71.29 Y141.429 E16.53389
G1 X71.205 Y140.953 E16.56203
G1 X71.206 Y140.269 E16.60184
G1 X70.697 Y140.071 E16.63362
G1 X69.994 Y139.591 E16.68316
G1 X69.59 Y139.147 E16.71809
G1 X69.272 Y138.567 E16.75658
G1 X69.094 Y137.926 E16.79529
G1 X69.112 Y133.498 E17.05298
G1 X69.215 Y133.017 E17.08161
G1 X69.418 Y132.532 E17.11221
G1 X69.65 Y132.166 E17.13743
G1 X70.056 Y131.754 E17.17109
G1 X69.654 Y131.338 E17.20476
G1 X69.426 Y130.969 E17.23
G1 X69.229 Y130.483 E17.26052
G1 X69.131 Y130.001 E17.28914
G1 X69.16 Y125.591 E17.54579
G1 X69.341 Y124.944 E17.58489
G1 X69.667 Y124.362 E17.62371
G1 X70.031 Y123.96 E17.65527
G1 X70.728 Y123.478 E17.70459
G1 X71.297 Y123.255 E17.74016
G1 X71.464 Y94.496 E19.41382
G1 X71.57 Y94.017 E19.44237
M73 P1 R23
G1 X71.787 Y93.51 E19.47446
G1 X72.032 Y93.139 E19.50033
G1 X72.462 Y92.706 E19.53584
G1 X72.466 Y91.932 E19.58088
G1 X72.422 Y91.764 E19.59099
G1 X72.321 Y91.055 E19.63267
G1 X72.338 Y90.301 E19.67656
G1 X72.481 Y89.576 E19.71956
G1 X72.492 Y89.333 E19.73372
G1 X72.569 Y88.957 E19.75606
G1 X72.796 Y88.395 E19.79133
G1 X73.136 Y87.897 E19.82642
G1 X73.481 Y87.555 E19.85469
M204 S2500
G1 X73.833 Y87.911 F7200
M204 S2000
G1 F3000
G1 X74.225 Y87.638 E19.88249
G1 X74.632 Y87.467 E19.90818
G1 X74.949 Y87.391 E19.92715
G1 X75.755 Y87.378 E19.97406
G1 X78.477 Y87.403 E20.13247
G1 X78.859 Y87.494 E20.15532
G1 X79.267 Y87.672 E20.18122
G1 X79.588 Y87.893 E20.2039
G1 X80 Y88.311 E20.23806
G1 X80.216 Y88.64 E20.26096
G1 X80.401 Y89.095 E20.28954
G1 X80.475 Y89.477 E20.31218
G1 X80.474 Y91.558 E20.43328
G1 X84.964 Y91.575 E20.69458
G1 X84.99 Y89.448 E20.81837
G1 X85.067 Y89.104 E20.83888
G1 X85.285 Y88.606 E20.87052
G1 X85.51 Y88.295 E20.89286
G1 X85.898 Y87.918 E20.92434
G1 X86.228 Y87.701 E20.94732
G1 X86.633 Y87.532 E20.97286
G1 X87.113 Y87.439 E21.00131
G1 X90.368 Y87.457 E21.19074
G1 X90.848 Y87.555 E21.21925
G1 X91.211 Y87.707 E21.24215
G1 X91.49 Y87.878 E21.26119
G1 X91.962 Y88.33 E21.29922
G1 X92.217 Y88.706 E21.32566
G1 X92.404 Y89.169 E21.35472
G1 X92.471 Y89.506 E21.37472
G1 X92.478 Y89.776 E21.39044
G1 X92.524 Y89.942 E21.40046
G1 X92.629 Y90.654 E21.44234
G1 X92.613 Y91.233 E21.47605
G1 X92.517 Y91.799 E21.50946
G1 X92.466 Y91.97 E21.51984
G1 X92.462 Y92.625 E21.55796
G1 X137.962 Y92.871 E24.20587
G1 X137.966 Y92.216 E24.24399
G1 X137.917 Y92.044 E24.2544
G1 X137.827 Y91.478 E24.28775
G1 X137.817 Y90.898 E24.32151
G1 X137.929 Y90.187 E24.3634
G1 X137.978 Y90.022 E24.37342
G1 X137.987 Y89.752 E24.38914
G1 X138.058 Y89.414 E24.40924
G1 X138.226 Y89 E24.43524
G1 X138.4 Y88.714 E24.45472
G1 X138.851 Y88.243 E24.49267
G1 X139.274 Y87.964 E24.52216
G1 X139.79 Y87.773 E24.55418
G1 X140.114 Y87.725 E24.57324
G1 X143.367 Y87.743 E24.76255
G1 X143.847 Y87.841 E24.79106
G1 X144.213 Y87.995 E24.81417
G1 X144.541 Y88.206 E24.83687
G1 X144.963 Y88.619 E24.87123
G1 X145.157 Y88.884 E24.89034
G1 X145.393 Y89.424 E24.92464
G1 X145.467 Y89.765 E24.94495
G1 X145.47 Y91.911 E25.06984
G1 X149.963 Y91.929 E25.33131
G1 X149.984 Y89.842 E25.45277
G1 X150.067 Y89.453 E25.47592
G1 X150.258 Y89.003 E25.50437
G1 X150.512 Y88.642 E25.53006
G1 X150.946 Y88.23 E25.56488
G1 X151.235 Y88.048 E25.58476
G1 X151.632 Y87.883 E25.60978
G1 X152.112 Y87.79 E25.63823
G1 X155.367 Y87.808 E25.82766
G1 X155.855 Y87.91 E25.85667
G1 X156.356 Y88.139 E25.88873
G1 X156.624 Y88.34 E25.90823
G1 X157.068 Y88.815 E25.94607
G1 X157.237 Y89.098 E25.96525
G1 X157.397 Y89.502 E25.99054
G1 X157.468 Y89.837 E26.01047
G1 X157.475 Y90.123 E26.02712
G1 X157.522 Y90.285 E26.03694
G1 X157.624 Y90.948 E26.07598
G1 X157.609 Y91.618 E26.11498
G1 X157.516 Y92.15 E26.14641
G1 X157.465 Y92.322 E26.15685
G1 X157.459 Y93.37 E26.21784
G1 X158.008 Y93.935 E26.26369
G1 X158.191 Y94.226 E26.2837
G1 X158.37 Y94.669 E26.31151
G1 X158.45 Y95.103 E26.33719
G1 X158.293 Y124.15 E28.0276
G1 X158.648 Y124.207 E28.04852
G1 X159.049 Y124.355 E28.07339
G1 X159.698 Y124.798 E28.11912
G1 X160.016 Y125.155 E28.14694
G1 X160.277 Y125.643 E28.17915
G1 X160.421 Y126.236 E28.21466
G1 X160.394 Y130.417 E28.45798
G1 X160.302 Y130.848 E28.48363
G1 X160.132 Y131.244 E28.50871
G1 X159.947 Y131.531 E28.52858
G1 X159.228 Y132.236 E28.58718
G1 X159.939 Y132.949 E28.64578
G1 X160.121 Y133.238 E28.66566
G1 X160.301 Y133.685 E28.6937
G1 X160.379 Y134.115 E28.71913
G1 X160.356 Y138.248 E28.95965
G1 X160.23 Y138.777 E28.9913
G1 X159.979 Y139.263 E29.02313
G1 X159.577 Y139.711 E29.05816
G1 X159.025 Y140.082 E29.09686
G1 X158.625 Y140.24 E29.12189
G1 X158.205 Y140.303 E29.14661
G1 X158.195 Y141.409 E29.21098
G1 X158.114 Y141.797 E29.23405
G1 X157.923 Y142.249 E29.26261
G1 X157.668 Y142.615 E29.28857
G1 X157.233 Y143.029 E29.32352
G1 X156.944 Y143.21 E29.34336
G1 X156.501 Y143.389 E29.37117
G1 X156.067 Y143.469 E29.39685
G1 X73.813 Y143.024 E34.18369
G1 X73.324 Y142.922 E34.21276
G1 X72.823 Y142.693 E34.24482
G1 X72.555 Y142.491 E34.26435
G1 X72.142 Y142.058 E34.29917
G1 X71.94 Y141.727 E34.32174
G1 X71.776 Y141.313 E34.34765
G1 X71.705 Y140.93 E34.37032
G1 X71.706 Y139.844 E34.43352
G1 X71.352 Y139.787 E34.45439
G1 X70.951 Y139.639 E34.47926
G1 X70.302 Y139.196 E34.52499
G1 X69.984 Y138.839 E34.55281
G1 X69.725 Y138.356 E34.5847
G1 X69.594 Y137.892 E34.61276
G1 X69.606 Y133.577 E34.86387
G1 X69.698 Y133.146 E34.88952
G1 X69.868 Y132.75 E34.9146
G1 X70.053 Y132.463 E34.93447
G1 X70.772 Y131.758 E34.99307
G1 X70.061 Y131.045 E35.05167
G1 X69.879 Y130.756 E35.07155
G1 X69.714 Y130.358 E35.09662
G1 X69.626 Y129.927 E35.12222
G1 X69.651 Y125.689 E35.36885
G1 X69.794 Y125.157 E35.40091
G1 X70.062 Y124.67 E35.43326
G1 X70.342 Y124.353 E35.45787
G1 X70.985 Y123.908 E35.50338
G1 X71.444 Y123.737 E35.53188
G1 X71.795 Y123.685 E35.55253
G1 X71.963 Y94.528 E37.24935
G1 X72.051 Y94.153 E37.27177
G1 X72.219 Y93.762 E37.29654
G1 X72.406 Y93.472 E37.31662
G1 X72.961 Y92.913 E37.36246
G1 X72.967 Y91.863 E37.42357
G1 X72.914 Y91.673 E37.43505
G1 X72.821 Y91.043 E37.47211
G1 X72.834 Y90.369 E37.51134
G1 X72.935 Y89.814 E37.54417
G1 X72.979 Y89.668 E37.55304
G1 X72.987 Y89.406 E37.56829
G1 X73.043 Y89.116 E37.58548
G1 X73.227 Y88.649 E37.61469
G1 X73.506 Y88.234 E37.64379
G1 X73.79 Y87.953 E37.66704
M204 S2500
G1 X74.142 Y88.308 F7200
M204 S2000
G1 F3000
G1 X74.478 Y88.07 E37.691
G1 X74.8 Y87.939 E37.71123
G1 X75.034 Y87.884 E37.72522
G1 X78.442 Y87.903 E37.92355
G1 X78.678 Y87.961 E37.93769
G1 X79.043 Y88.119 E37.96084
G1 X79.28 Y88.286 E37.97771
G1 X79.623 Y88.639 E38.00635
G1 X79.781 Y88.887 E38.02346
G1 X79.926 Y89.254 E38.04642
G1 X79.978 Y89.542 E38.06345
G1 X79.972 Y92.056 E38.20975
G1 X85.459 Y92.077 E38.52907
G1 X85.484 Y89.524 E38.67765
G1 X85.536 Y89.28 E38.69217
G1 X85.732 Y88.832 E38.72063
G1 X85.872 Y88.639 E38.73451
G1 X86.227 Y88.295 E38.76328
G1 X86.476 Y88.136 E38.78047
G1 X86.798 Y88.004 E38.80072
G1 X87.135 Y87.939 E38.82069
G1 X90.341 Y87.956 E39.00727
G1 X90.677 Y88.025 E39.02723
G1 X90.997 Y88.16 E39.04744
G1 X91.201 Y88.287 E39.06142
G1 X91.592 Y88.668 E39.09319
G1 X91.784 Y88.957 E39.11338
G1 X91.929 Y89.327 E39.13651
G1 X91.975 Y89.573 E39.15107
G1 X91.978 Y89.851 E39.16725
G1 X92.033 Y90.037 E39.17854
G1 X92.128 Y90.663 E39.21539
G1 X92.113 Y91.201 E39.24671
G1 X92.027 Y91.695 E39.27589
G1 X91.966 Y91.891 E39.28784
G1 X91.96 Y93.122 E39.35948
G1 X138.459 Y93.374 E42.06553
G1 X138.466 Y92.143 E42.13717
G1 X138.407 Y91.946 E42.14914
G1 X138.326 Y91.451 E42.17833
G1 X138.317 Y90.913 E42.20964
G1 X138.419 Y90.288 E42.24649
G1 X138.477 Y90.103 E42.25777
G1 X138.482 Y89.825 E42.27395
G1 X138.531 Y89.579 E42.28855
G1 X138.681 Y89.209 E42.31178
G1 X138.809 Y89.002 E42.32594
G1 X139.19 Y88.612 E42.35767
G1 X139.478 Y88.421 E42.37778
G1 X139.895 Y88.262 E42.40375
G1 X140.132 Y88.225 E42.41771
G1 X143.34 Y88.243 E42.6044
G1 X143.676 Y88.312 E42.62436
G1 X143.997 Y88.446 E42.6446
G1 X144.244 Y88.608 E42.66179
G1 X144.595 Y88.957 E42.6906
G1 X144.734 Y89.152 E42.70454
G1 X144.912 Y89.562 E42.73055
G1 X144.967 Y89.796 E42.74454
G1 X144.971 Y92.408 E42.89655
G1 X150.458 Y92.431 E43.21587
G1 X150.484 Y89.876 E43.36457
G1 X150.549 Y89.588 E43.38175
G1 X150.706 Y89.226 E43.40471
G1 X150.875 Y88.988 E43.4217
G1 X151.27 Y88.612 E43.45344
G1 X151.475 Y88.487 E43.46741
G1 X151.797 Y88.355 E43.48766
G1 X152.134 Y88.29 E43.50763
G1 X155.339 Y88.308 E43.69415
G1 X155.677 Y88.377 E43.71423
G1 X156.084 Y88.559 E43.74018
G1 X156.279 Y88.703 E43.75429
G1 X156.656 Y89.099 E43.78611
G1 X156.78 Y89.303 E43.8
G1 X156.924 Y89.664 E43.82262
G1 X156.973 Y89.908 E43.8371
G1 X156.976 Y90.199 E43.85404
G1 X157.031 Y90.383 E43.86522
G1 X157.124 Y90.962 E43.89935
G1 X157.113 Y91.551 E43.93363
G1 X157.026 Y92.046 E43.96288
G1 X156.965 Y92.243 E43.97488
G1 X156.958 Y93.658 E44.05723
G1 X157.21 Y93.83 E44.07499
G1 X157.628 Y94.261 E44.10993
G1 X157.753 Y94.467 E44.12395
G1 X157.885 Y94.789 E44.1442
G1 X157.95 Y95.126 E44.16417
G1 X157.79 Y124.602 E45.87955
G1 X158.508 Y124.688 E45.92163
G1 X158.847 Y124.813 E45.94266
G1 X159.35 Y125.158 E45.97816
G1 X159.591 Y125.42 E45.99888
G1 X159.821 Y125.851 E46.02731
G1 X159.921 Y126.263 E46.05198
G1 X159.899 Y130.343 E46.28942
G1 X159.831 Y130.679 E46.30937
G1 X159.696 Y130.999 E46.32958
G1 X159.569 Y131.203 E46.34356
G1 X159.156 Y131.622 E46.3778
G1 X158.95 Y131.759 E46.3922
G1 X158.545 Y131.926 E46.41769
G1 X158.301 Y131.976 E46.43218
G1 X157.752 Y131.989 E46.46414
G1 X157.755 Y132.48 E46.49271
G1 X158.294 Y132.486 E46.52408
G1 X158.539 Y132.538 E46.53866
G1 X158.945 Y132.71 E46.56432
G1 X159.149 Y132.85 E46.57872
G1 X159.558 Y133.273 E46.61296
G1 X159.682 Y133.477 E46.62685
G1 X159.827 Y133.844 E46.64981
G1 X159.879 Y134.135 E46.66701
G1 X159.857 Y138.214 E46.90439
G1 X159.754 Y138.623 E46.92893
G1 X159.553 Y139.001 E46.95384
G1 X159.273 Y139.314 E46.97828
G1 X158.772 Y139.65 E47.01339
G1 X158.482 Y139.76 E47.03144
G1 X157.709 Y139.851 E47.07674
G1 X157.695 Y141.378 E47.16561
G1 X157.632 Y141.664 E47.18265
G1 X157.475 Y142.027 E47.20567
G1 X157.305 Y142.27 E47.22293
G1 X156.909 Y142.647 E47.25475
G1 X156.703 Y142.772 E47.26877
G1 X156.381 Y142.904 E47.28902
G1 X156.044 Y142.969 E47.30899
G1 X73.84 Y142.524 E52.09292
G1 X73.502 Y142.455 E52.113
G1 X73.096 Y142.273 E52.13889
G1 X72.901 Y142.13 E52.15296
G1 X72.523 Y141.733 E52.18486
G1 X72.397 Y141.525 E52.19901
G1 X72.251 Y141.155 E52.22216
G1 X72.202 Y140.868 E52.2391
G1 X72.21 Y139.392 E52.325
G1 X71.492 Y139.306 E52.36708
G1 X71.153 Y139.181 E52.38811
G1 X70.65 Y138.836 E52.42361
G1 X70.409 Y138.574 E52.44433
G1 X70.178 Y138.142 E52.47284
G1 X70.094 Y137.856 E52.49019
G1 X70.101 Y133.652 E52.73484
G1 X70.169 Y133.315 E52.75485
G1 X70.304 Y132.995 E52.77506
G1 X70.431 Y132.791 E52.78904
G1 X70.844 Y132.372 E52.82328
G1 X71.05 Y132.235 E52.83768
G1 X71.457 Y132.067 E52.8633
G1 X71.704 Y132.018 E52.87795
G1 X72.242 Y132.018 E52.90926
G1 X72.251 Y131.527 E52.93784
G1 X71.701 Y131.507 E52.96987
G1 X71.459 Y131.456 E52.98426
