; Postprocessed by [ArcWelder](https://github.com/FormerLurker/ArcWelderLib)
; Copyright(C) 2021 - Brad Hochgesang
; Version: 1.2.0, Branch: HEAD, BuildDate: 2021-11-21T20:25:43Z
; resolution=0.05mm
; path_tolerance=5.0%
; max_radius=9999.00mm
; default_xyz_precision=3
; default_e_precision=5
; extrusion_rate_variance_percent=5.0%

; generated by AnycubicSlicer 1.1.5 on 2023-10-06 at 18:54:26 UTC




; 

; external perimeters extrusion width = 0.42mm
; perimeters extrusion width = 0.45mm
; infill extrusion width = 0.45mm
; solid infill extrusion width = 0.45mm
; top infill extrusion width = 0.42mm
; support material extrusion width = 0.42mm
; first layer extrusion width = 0.50mm

;TYPE:Custom
G90 ; use absolute coordinates
M83 ; extruder relative mode
M140 S60 ; set bed temp
M190 S60 ; wait for bed temp
M104 S215 ; set extruder temp
M109 S215 ; wait for extruder temp
G28                                        ; move X/Y/Z to min endstops
G1 Z0.28                                   ; lift nozzle a bit 
G92 E0 
G1 Y3 F2400                                    ; zero the extruded length 
G1 X180  E40 F500                       ; Extrude 25mm of filament in a 5cm line. 
G92 E0                                     ; zero the extruded length again 
G1 E-0.2 F3000                                ; Retract a little 
G1 X181 F4000                              ; Quickly wipe away from the filament line
M117
G21 ; set units to millimeters
G90 ; use absolute coordinates
M82 ; use absolute distances for extrusion
G92 E0
M107
;LAYER_CHANGE
;Z:0.25
;HEIGHT:0.25
; BEFORE_LAYER_CHANGE 0 @ 0.25mm
G1 Z.25 F18000
; AFTER_LAYER_CHANGE 0 @ 0.25mm
G1 E-2.5 F4800
G92 E0
M204 S20000
G1 X124.144 Y64.045 F18000
G1 E2.5 F4800
M204 S5000
;TYPE:Support material
;WIDTH:0.5
G1 X124.925 Y64.34 E2.53796
G1 X125.108 Y64.232 E2.54762
G1 X125.903 Y64.031 E2.5849
G1 X126.49 Y63.976 E2.6117
G1 X127.324 Y64.045 E2.64975
G1 X128.105 Y64.34 E2.68771
G1 X128.288 Y64.232 E2.69737
G3 X130.504 Y64.045 I1.452 J3.978 E2.79951
G1 X131.285 Y64.34 E2.83747
G1 X131.468 Y64.232 E2.84713
G3 X133.684 Y64.045 I1.452 J3.978 E2.94927
G1 X134.465 Y64.34 E2.98723
G1 X134.648 Y64.232 E2.99689
G3 X136.864 Y64.045 I1.452 J3.978 E3.09903
G1 X137.916 Y64.442 E3.15015
G3 X138.846 Y65.210 I-3.488 J5.171 E3.20505
G1 X139.067 Y65.189 E3.21514
G1 X139.901 Y65.258 E3.25319
G1 X141.032 Y65.685 E3.30815
G1 X142.025 Y66.532 E3.36749
G1 X142.672 Y67.665 E3.42681
G1 X142.895 Y68.941 E3.4857
G1 X142.664 Y70.252 E3.54622
G1 X142.528 Y70.491 E3.55872
G1 X142.576 Y70.59 E3.56372
G1 X142.756 Y71.818 E3.62015
G1 X142.559 Y72.814 E3.66631
G1 X142.686 Y72.922 E3.67389
G1 X143.333 Y74.056 E3.73325
G1 X143.556 Y75.332 E3.79214
G1 X143.324 Y76.643 E3.85267
G1 X143.159 Y76.932 E3.8678
G1 X143.333 Y77.236 E3.88373
G1 X143.556 Y78.512 E3.94262
G1 X143.324 Y79.823 E4.00315
G1 X143.159 Y80.112 E4.01828
G1 X143.333 Y80.416 E4.03421
G1 X143.556 Y81.692 E4.0931
G1 X143.324 Y83.003 E4.15363
G1 X143.159 Y83.292 E4.16876
G1 X143.333 Y83.596 E4.18469
G1 X143.556 Y84.872 E4.24358
G1 X143.324 Y86.183 E4.30411
G1 X143.159 Y86.472 E4.31924
G1 X143.333 Y86.776 E4.33517
G1 X143.556 Y88.052 E4.39406
G1 X143.324 Y89.363 E4.45459
G1 X143.131 Y89.702 E4.47233
G1 X143.333 Y90.056 E4.49086
G1 X143.556 Y91.332 E4.54975
G1 X143.324 Y92.643 E4.61028
G1 X143.159 Y92.932 E4.62541
G1 X143.333 Y93.236 E4.64134
G1 X143.556 Y94.512 E4.70023
G1 X143.324 Y95.823 E4.76076
G1 X143.159 Y96.112 E4.77589
G1 X143.333 Y96.416 E4.79182
G1 X143.556 Y97.692 E4.85071
G1 X143.324 Y99.003 E4.91124
G1 X143.159 Y99.292 E4.92637
G1 X143.333 Y99.596 E4.9423
G1 X143.556 Y100.872 E5.00119
G1 X143.324 Y102.183 E5.06172
G1 X143.159 Y102.472 E5.07685
G1 X143.333 Y102.776 E5.09278
G1 X143.556 Y104.052 E5.15167
G1 X143.324 Y105.363 E5.2122
G1 X143.159 Y105.652 E5.22733
G1 X143.333 Y105.956 E5.24326
G1 X143.556 Y107.232 E5.30215
G1 X143.324 Y108.543 E5.36268
G1 X143.159 Y108.832 E5.37781
G1 X143.333 Y109.136 E5.39374
G1 X143.556 Y110.412 E5.45263
G1 X143.324 Y111.723 E5.51316
G1 X143.131 Y112.062 E5.5309
G1 X143.333 Y112.416 E5.54943
G1 X143.556 Y113.692 E5.60832
G1 X143.324 Y115.003 E5.66885
G1 X143.131 Y115.342 E5.68659
G1 X143.333 Y115.696 E5.70512
G1 X143.556 Y116.972 E5.76401
G1 X143.324 Y118.283 E5.82454
G1 X143.159 Y118.572 E5.83967
G1 X143.333 Y118.876 E5.8556
G1 X143.556 Y120.151 E5.91445
G1 X143.324 Y121.463 E5.97503
G1 X143.159 Y121.752 E5.99016
G1 X143.333 Y122.056 E6.00609
G1 X143.556 Y123.331 E6.06494
G1 X143.324 Y124.643 E6.12552
G1 X143.159 Y124.932 E6.14065
G1 X143.333 Y125.236 E6.15658
G1 X143.556 Y126.511 E6.21543
G1 X143.324 Y127.823 E6.27601
G1 X143.159 Y128.112 E6.29114
G1 X143.333 Y128.416 E6.30707
G1 X143.556 Y129.691 E6.36592
G1 X143.324 Y131.003 E6.4265
G1 X143.159 Y131.292 E6.44163
G1 X143.333 Y131.596 E6.45756
G1 X143.556 Y132.871 E6.51641
G1 X143.324 Y134.183 E6.57699
G1 X143.159 Y134.472 E6.59212
G1 X143.333 Y134.776 E6.60805
G1 X143.556 Y136.051 E6.6669
G1 X143.324 Y137.363 E6.72748
G1 X143.159 Y137.652 E6.74261
G1 X143.333 Y137.956 E6.75854
G1 X143.556 Y139.231 E6.81739
G1 X143.324 Y140.543 E6.87797
G1 X143.131 Y140.882 E6.89571
G1 X143.333 Y141.236 E6.91424
G1 X143.556 Y142.511 E6.97309
G1 X143.324 Y143.823 E7.03367
G1 X143.159 Y144.112 E7.0488
G1 X143.333 Y144.416 E7.06473
G1 X143.556 Y145.691 E7.12358
G1 X143.324 Y147.003 E7.18416
G1 X143.131 Y147.342 E7.2019
G1 X143.333 Y147.696 E7.22043
G1 X143.556 Y148.971 E7.27928
G1 X143.324 Y150.283 E7.33986
G1 X142.649 Y151.467 E7.40182
G1 X142.904 Y152.398 E7.44571
G1 X142.878 Y153.4 E7.49128
G1 X142.661 Y154.138 E7.52625
G1 X142.765 Y154.323 E7.5359
G1 X142.976 Y155.591 E7.59434
G3 X142.724 Y156.936 I-14.997 J-2.114 E7.65657
G1 X142.082 Y158.032 E7.71432
G1 X141.148 Y158.81 E7.76959
G3 X139.501 Y159.314 I-1.961 J-3.465 E7.84851
G1 X139.382 Y159.523 E7.85944
G1 X138.389 Y160.37 E7.91878
G1 X137.257 Y160.796 E7.97377
G3 X134.884 Y160.517 I-0.751 J-3.842 E8.08421
G1 X134.007 Y160.847 E8.12681
G3 X131.633 Y160.568 I-0.751 J-3.848 E8.23728
G1 X130.756 Y160.898 E8.27988
G3 X128.383 Y160.619 I-0.751 J-3.842 E8.39031
G1 X127.505 Y160.95 E8.43297
G3 X125.132 Y160.670 I-0.749 J-3.852 E8.54340
G1 X124.255 Y161.001 E8.58602
G3 X121.867 Y160.713 I-0.748 J-3.839 E8.69722
G1 X120.995 Y161.041 E8.73958
G3 X118.779 Y160.855 I-0.756 J-4.289 E8.84172
G1 X118.558 Y160.724 E8.8534
G1 X117.715 Y161.041 E8.89435
G3 X115.499 Y160.855 I-0.756 J-4.289 E8.99649
G1 X115.278 Y160.724 E9.00817
G1 X114.435 Y161.041 E9.04912
G3 X112.219 Y160.855 I-0.756 J-4.289 E9.15126
G1 X112.037 Y160.747 E9.16088
G1 X111.255 Y161.041 E9.19886
G3 X109.039 Y160.855 I-0.756 J-4.289 E9.30100
G1 X108.857 Y160.747 E9.31062
G1 X108.075 Y161.041 E9.3486
G3 X105.859 Y160.855 I-0.756 J-4.289 E9.45074
G1 X105.677 Y160.747 E9.46036
G1 X104.895 Y161.041 E9.49834
G3 X102.679 Y160.855 I-0.756 J-4.289 E9.60048
G1 X102.497 Y160.747 E9.6101
G1 X101.715 Y161.041 E9.64808
G3 X99.499 Y160.855 I-0.756 J-4.289 E9.75022
G1 X98.865 Y160.48 E9.78371
G1 X98.512 Y160.613 E9.80086
G3 X96.296 Y160.426 I-0.756 J-4.269 E9.90300
G1 X95.246 Y159.806 E9.95844
G1 X94.435 Y158.827 E10.01624
G3 X93.971 Y157.551 I15.343 J-6.302 E10.07799
G1 X93.971 Y157.338 E10.08767
G1 X93.482 Y157.049 E10.11349
G1 X92.649 Y156.044 E10.17284
G1 X92.206 Y154.815 E10.23224
G1 X92.206 Y153.51 E10.29157
G1 X92.531 Y152.608 E10.33516
G1 X92.145 Y151.536 E10.38696
G1 X92.145 Y150.23 E10.44634
G1 X92.501 Y149.243 E10.49404
G1 X92.145 Y148.256 E10.54174
G1 X92.145 Y146.95 E10.60112
G1 X92.483 Y146.013 E10.64641
G1 X92.145 Y145.076 E10.6917
G1 X92.145 Y143.77 E10.75108
G1 X92.483 Y142.833 E10.79637
G1 X92.145 Y141.896 E10.84166
G1 X92.145 Y140.59 E10.90104
G1 X92.501 Y139.603 E10.94874
G1 X92.145 Y138.616 E10.99644
G1 X92.145 Y137.31 E11.05582
G1 X92.483 Y136.373 E11.10111
G1 X92.145 Y135.436 E11.1464
G1 X92.145 Y134.13 E11.20578
G1 X92.483 Y133.193 E11.25107
G1 X92.145 Y132.256 E11.29636
G1 X92.145 Y130.95 E11.35574
G1 X92.35 Y130.382 E11.38319
G1 X92.22 Y130.226 E11.39242
G1 X91.778 Y128.998 E11.45176
G1 X91.778 Y127.692 E11.51114
G1 X92.127 Y126.721 E11.55805
G1 X91.778 Y125.75 E11.60496
G1 X91.778 Y124.444 E11.66434
G1 X92.115 Y123.507 E11.70961
G1 X91.778 Y122.57 E11.75488
G1 X91.778 Y121.264 E11.81426
G1 X92.128 Y120.292 E11.86123
G1 X91.778 Y119.319 E11.90824
G1 X91.778 Y118.013 E11.96762
G1 X92.115 Y117.076 E12.01289
G1 X91.778 Y116.139 E12.05816
G1 X91.778 Y114.833 E12.11754
G1 X92.115 Y113.896 E12.16281
G1 X91.778 Y112.959 E12.20808
G1 X91.778 Y111.653 E12.26746
G1 X92.115 Y110.716 E12.31273
G1 X91.778 Y109.779 E12.358
G1 X91.778 Y108.473 E12.41738
G1 X92.128 Y107.501 E12.46435
G1 X91.778 Y106.529 E12.51132
G1 X91.778 Y105.223 E12.5707
G1 X92.115 Y104.286 E12.61597
G1 X91.778 Y103.349 E12.66124
G1 X91.778 Y102.043 E12.72062
G1 X92.115 Y101.106 E12.76589
G1 X91.778 Y100.169 E12.81116
G1 X91.778 Y98.863 E12.87054
G1 X92.128 Y97.89 E12.91755
G1 X91.778 Y96.918 E12.96452
G1 X91.778 Y95.612 E13.0239
G1 X92.115 Y94.675 E13.06917
G1 X91.778 Y93.738 E13.11444
G1 X91.778 Y92.432 E13.17382
G1 X92.115 Y91.495 E13.21909
G1 X91.778 Y90.558 E13.26436
G1 X91.778 Y89.252 E13.32374
G1 X92.115 Y88.315 E13.36901
G1 X91.778 Y87.378 E13.41428
G1 X91.778 Y86.072 E13.47366
G1 X92.128 Y85.1 E13.52063
G1 X91.778 Y84.127 E13.56764
G1 X91.778 Y82.822 E13.62697
G1 X92.115 Y81.884 E13.67228
G1 X91.778 Y80.947 E13.71755
G1 X91.778 Y79.642 E13.77688
G1 X92.115 Y78.704 E13.82219
G1 X91.778 Y77.767 E13.86746
G1 X91.778 Y76.462 E13.92679
G1 X92.22 Y75.233 E13.98617
G1 X93 Y74.291 E14.04177
G1 X92.064 Y73.16 E14.10852
G1 X91.621 Y71.932 E14.16787
G1 X91.621 Y70.627 E14.2272
G1 X92.064 Y69.398 E14.2866
G1 X92.897 Y68.393 E14.34595
G1 X93.87 Y67.818 E14.39733
G1 X93.87 Y67.311 E14.42038
G1 X94.313 Y66.083 E14.47973
G1 X95.145 Y65.078 E14.53905
G1 X96.196 Y64.458 E14.59453
G3 X98.412 Y64.271 I1.452 J3.978 E14.69667
G1 X99.016 Y64.499 E14.72602
G1 X99.468 Y64.232 E14.74989
G3 X101.684 Y64.045 I1.452 J3.978 E14.85202
G1 X102.465 Y64.34 E14.88998
G1 X102.648 Y64.232 E14.89964
G3 X104.864 Y64.045 I1.452 J3.978 E15.00177
G1 X105.645 Y64.34 E15.03973
G1 X105.828 Y64.232 E15.04939
G3 X108.044 Y64.045 I1.452 J3.978 E15.15152
G1 X108.825 Y64.34 E15.18948
G1 X109.008 Y64.232 E15.19914
G3 X111.224 Y64.045 I1.452 J3.978 E15.30127
G1 X112.005 Y64.34 E15.33923
G1 X112.188 Y64.232 E15.34889
G3 X114.404 Y64.045 I1.452 J3.978 E15.45102
G1 X115.185 Y64.34 E15.48898
G1 X115.368 Y64.232 E15.49864
G3 X117.584 Y64.045 I1.452 J3.978 E15.60077
G1 X118.426 Y64.363 E15.64169
G1 X118.648 Y64.232 E15.65341
G3 X120.864 Y64.045 I1.452 J3.978 E15.75554
G1 X121.706 Y64.363 E15.79646
G1 X121.928 Y64.232 E15.80818
G3 X124.077 Y64.040 I1.426 J3.841 E15.90725
M204 S20000
G1 X117.584 Y71.432 F18000
M204 S5000
G1 F4800
G1 X118.426 Y71.114 E15.94817
G1 X118.648 Y71.245 E15.95989
G2 X120.864 Y71.432 I1.452 J-3.978 E16.06202
G1 X121.706 Y71.114 E16.10294
G1 X121.928 Y71.245 E16.11466
G2 X124.144 Y71.432 I1.452 J-3.978 E16.21680
G1 X124.925 Y71.137 E16.25476
G1 X125.108 Y71.245 E16.26442
G2 X127.324 Y71.432 I1.452 J-3.978 E16.36656
G1 X128.105 Y71.137 E16.40452
G1 X128.288 Y71.245 E16.41418
G2 X130.504 Y71.432 I1.452 J-3.978 E16.51632
G1 X131.285 Y71.137 E16.55428
G1 X131.467 Y71.245 E16.5639
G1 X132.486 Y71.503 E16.61169
G1 X132.081 Y72.636 E16.66639
G1 X132.084 Y73.944 E16.72586
G1 X132.532 Y75.173 E16.78533
G1 X133.37 Y76.177 E16.84479
G1 X134.419 Y76.789 E16.90001
G2 X136.334 Y76.997 I1.378 J-3.766 E16.98839
G1 X136.02 Y77.869 E17.03053
G1 X136.02 Y79.175 E17.08991
G1 X136.358 Y80.112 E17.1352
G1 X136.283 Y80.319 E17.14521
G1 X136.283 Y83.085 E17.27097
G3 X136.283 Y83.499 I-0.248 J0.207 E17.29099
G1 X136.283 Y86.265 E17.41675
G3 X136.283 Y86.679 I-0.248 J0.207 E17.43677
G1 X136.283 Y89.445 E17.56253
G3 X136.283 Y89.959 I-0.309 J0.257 E17.58739
G1 X136.283 Y92.725 E17.71315
G3 X136.283 Y93.139 I-0.248 J0.207 E17.73317
G1 X136.283 Y95.905 E17.85893
G3 X136.283 Y96.319 I-0.248 J0.207 E17.87895
G1 X136.283 Y99.085 E18.00471
G3 X136.283 Y99.499 I-0.248 J0.207 E18.02473
G1 X136.283 Y102.265 E18.15049
G3 X136.283 Y102.679 I-0.248 J0.207 E18.17051
G1 X136.283 Y105.445 E18.29627
G3 X136.283 Y105.859 I-0.248 J0.207 E18.31629
G1 X136.283 Y108.625 E18.44205
G3 X136.283 Y109.039 I-0.248 J0.207 E18.46207
G1 X136.283 Y111.805 E18.58783
G3 X136.283 Y112.319 I-0.309 J0.257 E18.61269
G1 X136.283 Y115.085 E18.73845
G3 X136.283 Y115.599 I-0.309 J0.257 E18.76331
G1 X136.283 Y118.365 E18.88907
G3 X136.283 Y118.779 I-0.248 J0.207 E18.90909
G1 X136.283 Y121.545 E19.03485
G3 X136.283 Y121.959 I-0.248 J0.207 E19.05487
G1 X136.283 Y124.725 E19.18063
G3 X136.283 Y125.139 I-0.248 J0.207 E19.20065
G1 X136.283 Y127.905 E19.32641
G3 X136.283 Y128.319 I-0.248 J0.207 E19.34643
G1 X136.283 Y131.085 E19.47219
G3 X136.283 Y131.499 I-0.248 J0.207 E19.49221
G1 X136.283 Y134.265 E19.61797
G3 X136.283 Y134.679 I-0.248 J0.207 E19.63799
G1 X136.283 Y137.445 E19.76375
G3 X136.283 Y137.859 I-0.248 J0.207 E19.78377
G1 X136.283 Y140.625 E19.90953
G3 X136.283 Y141.139 I-0.309 J0.257 E19.93439
G1 X136.283 Y143.905 E20.06015
G3 X136.283 Y144.319 I-0.248 J0.207 E20.08017
G1 X136.283 Y145.135 E20.11727
G3 X136.020 Y145.497 I-0.568 J-0.136 E20.13800
G1 X136.02 Y146.355 E20.17701
G1 X136.376 Y147.342 E20.22471
G1 X136.188 Y147.863 E20.24989
G2 X134.774 Y148.122 I0.111 J4.596 E20.31544
G1 X133.723 Y148.742 E20.37092
G1 X132.891 Y149.747 E20.43024
G1 X132.448 Y150.975 E20.48959
G1 X132.448 Y152.281 E20.54897
G1 X132.758 Y153.14 E20.59049
G1 X132.484 Y153.472 E20.61006
G1 X131.791 Y153.648 E20.64257
G1 X131.528 Y153.803 E20.65645
G1 X130.756 Y153.512 E20.69396
G2 X128.540 Y153.699 I-0.753 J4.301 E20.79609
G1 X128.277 Y153.854 E20.80997
G1 X127.505 Y153.563 E20.84748
G2 X125.289 Y153.750 I-0.748 J4.354 E20.94958
G1 X125.026 Y153.905 E20.96346
G1 X124.255 Y153.614 E21.00093
G2 X122.039 Y153.801 I-0.753 J4.301 E21.10306
G1 X121.783 Y153.952 E21.11657
G1 X120.995 Y153.655 E21.15486
G2 X118.779 Y153.842 I-0.753 J4.301 E21.25699
G1 X118.558 Y153.973 E21.26867
G1 X117.715 Y153.655 E21.30963
G2 X115.499 Y153.842 I-0.753 J4.301 E21.41176
G1 X115.278 Y153.973 E21.42344
G1 X114.435 Y153.655 E21.4644
G2 X112.219 Y153.842 I-0.753 J4.301 E21.56653
G1 X112.037 Y153.95 E21.57615
G1 X111.255 Y153.655 E21.61415
G2 X109.039 Y153.842 I-0.753 J4.301 E21.71628
G1 X108.857 Y153.95 E21.7259
G1 X108.075 Y153.655 E21.7639
G2 X105.859 Y153.842 I-0.753 J4.301 E21.86603
G1 X105.677 Y153.95 E21.87565
G1 X105.295 Y153.806 E21.89421
G1 X105.351 Y153.474 E21.90952
G1 X105.128 Y152.199 E21.96837
G1 X104.481 Y151.065 E22.02773
G1 X103.488 Y150.218 E22.08707
G1 X102.476 Y149.837 E22.13623
G1 X102.117 Y149.208 E22.16916
G1 X101.124 Y148.361 E22.2285
G1 X99.993 Y147.935 E22.28345
G1 X99.629 Y147.904 E22.30006
G1 X99.681 Y147.593 E22.3144
G1 X99.458 Y146.317 E22.37329
G1 X99.284 Y146.013 E22.38922
G2 X99.513 Y145.384 I-0.780 J-0.640 E22.42009
G3 X99.363 Y145.135 I0.226 J-0.306 E22.43355
G1 X99.363 Y142.971 E22.53194
G3 X99.363 Y142.696 I0.080 J-0.138 E22.54636
G1 X99.363 Y139.791 E22.67844
G1 X99.256 Y139.603 E22.68827
G1 X99.363 Y139.416 E22.69807
G1 X99.363 Y136.511 E22.83015
G3 X99.363 Y136.236 I0.080 J-0.137 E22.84457
G1 X99.363 Y133.331 E22.97665
G3 X99.363 Y133.056 I0.080 J-0.138 E22.99107
G1 X99.363 Y130.151 E23.12315
G1 X99.08 Y129.656 E23.14907
G1 X99.313 Y128.334 E23.2101
G1 X99.09 Y127.059 E23.26895
G1 X98.898 Y126.721 E23.28662
G1 X99.082 Y126.398 E23.30352
G1 X99.313 Y125.087 E23.36404
G1 X99.09 Y123.811 E23.42293
G1 X98.917 Y123.507 E23.43883
G1 X99.082 Y123.218 E23.45396
G1 X99.313 Y121.907 E23.51448
G1 X99.09 Y120.631 E23.57337
G1 X98.897 Y120.292 E23.59111
G1 X99.082 Y119.967 E23.60811
G1 X99.313 Y118.656 E23.66863
G1 X99.09 Y117.38 E23.72752
G1 X98.917 Y117.076 E23.74342
G1 X99.082 Y116.787 E23.75855
G1 X99.313 Y115.476 E23.81907
G1 X99.09 Y114.2 E23.87796
G1 X98.917 Y113.896 E23.89386
G1 X99.082 Y113.607 E23.90899
G1 X99.313 Y112.296 E23.96951
G1 X99.09 Y111.02 E24.0284
G1 X98.917 Y110.716 E24.0443
G1 X99.082 Y110.427 E24.05943
G1 X99.313 Y109.116 E24.11995
G1 X99.09 Y107.84 E24.17884
